!!!!SEGMENT: pl-cz--iii-565_kurpinski-karol-kazimierz--badz-pozdrowiona.krn
!!!cenid: 18xx:272
!!!COM: Kurpiński, Karol Kazimierz
!!!COM-rismID: pe30018952
!!!CDT: 1785/03/06-1857/09/18
!!!CNT: Polish
!!!OTL: Bądź pozdrowiona
!!!PDT: 1841
!!!AGN: Sacred
!!!SMS-siglum: PL-CZ
!!!SMS-shelfmark: III-565
!!!SMS-shelfwork: W
!!!NIFC-rismSourceID:
!!!NIFC-islandoraID: pl-cz:39216
!!!URL-pdf-islandora: https://repozytorium.nifc.pl/islandora/object/pl-cz%3A39216/datastream/PDF/view
!!!URL-scan:
!!!ONB-nifc:
!!!AIN: 1 clars 1 cor 1 empty 1 viola 2 violn 1 vox
!!!key:
**kern	**dynam	**kern	**dynam	**kern	**dynam	**kern	**dynam	**kern	**text	**dynam	**kern	**dynam	**kern	**dynam
*part7	*part7	*part6	*part6	*part5	*part5	*part4	*part4	*part3	*part3	*part3	*part2	*part2	*part1	*part1
*staff7	*	*staff6	*	*staff5	*	*staff4	*	*staff3	*staff3	*	*staff2	*	*staff1	*
*Iempty	*	*Iviola	*	*Ivioln	*	*Ivioln	*	*Ivox	*	*	*Icor	*	*Iclars	*
*I"Bass	*	*I"Alto Viola	*	*I"Violino II	*	*I"Violino 1mo	*	*I"Canto	*	*	*I"Corni in F	*	*I"Clarinetti in C	*
*I'Bass	*	*I'V-la	*	*I'V-no II	*	*I'V-no I	*	*I'C.	*	*	*I'C. in F	*	*I'Cl. in C	*
*clefF4	*	*clefC3	*	*clefG2	*	*clefG2	*	*clefG2	*	*	*clefG2	*	*clefG2	*
*	*	*	*	*	*	*	*	*	*	*	*ITrd4c7	*	*	*
*k[b-]	*	*k[b-]	*	*k[b-]	*	*k[b-]	*	*k[b-]	*	*	*k[b-]	*	*k[b-]	*
*F:	*	*F:	*	*F:	*	*F:	*	*F:	*	*	*F:	*	*F:	*
*M3/4	*	*M3/4	*	*M3/4	*	*M3/4	*	*M3/4	*	*	*M3/4	*	*M3/4	*
*	*	*	*	*	*	*	*below	*	*	*	*	*	*	*
*	*	*	*	*	*	*	*	*	*	*	*	*	*^	*
!LO:TX:a:t=Adagio	!	!LO:TX:a:t=Adagio	!	!LO:SIC:s:o=:v:brak 1 taktu	!	!LO:TX:a:t=Adagio	!	!	!	!	!LO:TX:a:t=Adagio	!	!	!LO:TX:a:t=Adagio	!
4r	.	4r	.	4ryy	.	(8.c/L	.	4r	.	.	4r	.	8.c/L	4r	.
.	.	.	.	.	.	16f/Jk)	.	.	.	.	.	.	16f/Jk	.	.
=1	=1	=1	=1	=1	=1	=1	=1	=1	=1	=1	=1	=1	=1	=1	=1
*	*	*	*	*	*	*	*	*	*	*	*^	*	*	*	*
!	!	!	!	!	!	!	!	!LO:TX:a:t=9.	!	!	!	!	!	!	!	!
!	!	!	!LO:DY:rj	!	!LO:DY:rj	!	!LO:DY:rj	!LO:N:vis=00	!	!	!	!	!LO:DY:rj	!	!	!
4FF/	f	4f\	f	4.c/	f	4.c/ 4.a	f	0.r	.	.	4.f/	4.A\	f	4.a/	4.c\	f
4F\	.	4F/	.	.	.	.	.	.	.	.	.	.	.	.	.	.
.	.	.	.	8c'/L	.	8c/L 8a	.	.	.	.	8f/	8A\	.	8a/L	8c\L	.
4BB-/	.	4B-/	.	8B-'/	.	8d'/	.	.	.	.	4r	4ryy	.	8d/	8d\	.
.	.	.	.	8d'/J	.	8B-'/J	.	.	.	.	.	.	.	8B-/J	8B-\J	.
=2	=2	=2	=2	=2	=2	=2	=2	=2	=2	=2	=2	=2	=2	=2	=2	=2
4C/	.	4B-/	.	8.c/L	.	8.c/L 8.e	.	.	.	.	4g/ 4c	4c\	.	(8.e/L	4c\	.
.	.	.	.	16e/Jk	.	16g/Jk	.	.	.	.	.	.	.	16g/Jk)	.	.
8FF/	.	8A/	.	4A/	.	4f/	.	.	.	.	4f/ 4A	4A\	.	4f/	4A\	.
8r	.	8r	.	.	.	.	.	.	.	.	.	.	.	.	.	.
4r	.	4r	.	4r	.	8.f/L	.	.	.	.	4r	4r	.	8.f/L	4rc	.
.	.	.	.	.	.	16e/Jk	.	.	.	.	.	.	.	16e/Jk	.	.
*	*	*	*	*	*	*	*	*	*	*	*v	*v	*	*	*	*
=3	=3	=3	=3	=3	=3	=3	=3	=3	=3	=3	=3	=3	=3	=3	=3
*	*	*2\right	*	*	*	*	*	*	*	*	*	*	*	*	*
!LO:SIC:s:o=:v:kaudy półnut po prawej stronie	!	!	!	!	!LO:DY:rj	!	!	!	!	!	!LO:TX:a:t=1.	!	!	!	!
2BB-/	p	2B-\ 2d	p	4B-/ 4g	p	8d/L	p	.	.	.	2.r	.	8d/L	4B-\	.
.	.	.	.	.	.	16e/L	.	.	.	.	.	.	16e/L	.	.
.	.	.	.	.	.	16f#X/JJ	.	.	.	.	.	.	16f#X/JJ	.	.
.	.	.	.	8.d/L	.	8.g/L	.	.	.	.	.	.	8.g/L	4rg	.
.	.	.	.	16f#X/Jk	.	16a/Jk	.	.	.	.	.	.	16a/Jk	.	.
4r	.	4r	.	8g/L	.	(16b-/LL	.	.	.	.	.	.	8.b-/L	8.g\L	.
.	.	.	.	.	.	16d/	.	.	.	.	.	.	.	.	.
.	.	.	.	8e/J	.	16a/	.	.	.	.	.	.	.	.	.
.	.	.	.	.	.	16g/JJ)	.	.	.	.	.	.	16g/Jk	16e\Jk	.
=4	=4	=4	=4	=4	=4	=4	=4	=4	=4	=4	=4	=4	=4	=4	=4
*	*	*	*	*	*	*	*	*	*	*	*^	*	*	*	*
!	!	!	!	!	!	!	!	!	!	!	!	!	!LO:DY:rj	!	!	!
4FF/ 4F	.	8a\L	.	4A/	.	(8.f/L	.	.	.	.	4f/	4A\	p	8f/L	4f\	.
.	.	8cc\J	.	.	.	.	.	.	.	.	.	.	.	16g/L	.	.
!	!	!	!	!	!	!LO:SIC:o:s=:v:16 zamiast 32	!	!	!	!	!	!	!	!	!	!
*	*	*	*	*	*	*rscale:2	*	*	*	*	*	*	*	*	*	*
.	.	.	.	.	.	32g/LL	.	.	.	.	.	.	.	16f/JJ	.	.
.	.	.	.	.	.	32f/JJJ)	.	.	.	.	.	.	.	.	.	.
*	*	*	*	*	*	*rscale:1	*	*	*	*	*	*	*	*	*	*
8CC/ 8C	.	4c\	.	8c/	.	8d/	.	.	.	.	4e-X/	4c\	.	8e/	8c\	.
8r	.	.	.	8r	.	8r	.	.	.	.	.	.	.	8r	8r	.
4r	.	4r	.	4r	.	8.cc\L	.	.	.	.	4r	4ryy	.	8.cc/L	8.a\L	.
.	.	.	.	.	.	16a\Jk	.	.	.	.	.	.	.	16a/Jk	16f\Jk	.
*	*	*	*	*	*	*	*	*	*	*	*v	*v	*	*	*	*
=5	=5	=5	=5	=5	=5	=5	=5	=5	=5	=5	=5	=5	=5	=5	=5
!	!	!	!	!LO:LB:g=original	!	!	!	!	!	!	!	!	!	!LO:LB:g=original	!
!	!	!	!	!	!	!	!	!LO:N:vis=00	!	!	!LO:TX:a:t=2.	!	!	!	!LO:DY:a
*	*	*tremolo	*	*tremolo	*	*tremolo	*	*	*	*	*	*	*	*	*
!	!	!	!	!	!	!	!	!	!	!	!LO:N:vis=0	!	!	!	!
4F\	.	8A/L	.	8A/L 8f	.	8f/L 8a	.	0.r	.	.	1.r	.	4.ff/	4.a\ 4.cc	f
.	.	8A/	.	8A/ 8f	.	8f/ 8a	.	.	.	.	.	.	.	.	.
4F\	.	8A/	.	8A/ 8f	.	8f/ 8a	.	.	.	.	.	.	.	.	.
.	.	8A/	.	8A/ 8f	.	8f/ 8a	.	.	.	.	.	.	(16ee/LL	16cc\LL	.
.	.	.	.	.	.	.	.	.	.	.	.	.	16dd/JJ)	16b-\JJ	.
4BB-/	.	8A/	.	8A/ 8f	.	8f/ 8a	.	.	.	.	.	.	(16dd/LL	16b-\LL	.
.	.	.	.	.	.	.	.	.	.	.	.	.	16cc/)	16a\	.
.	.	8A/J	.	8A/J 8f	.	8f/J 8a	.	.	.	.	.	.	(16b-/	16g\	.
.	.	.	.	.	.	.	.	.	.	.	.	.	16a/JJ)	16f\JJ	.
*	*	*Xtremolo	*	*Xtremolo	*	*Xtremolo	*	*	*	*	*	*	*	*	*
=6	=6	=6	=6	=6	=6	=6	=6	=6	=6	=6	=6	=6	=6	=6	=6
*	*	*	*	*	*	*Xtuplet	*	*	*	*	*	*	*	*	*
!	!	!	!	!	!	!	!LO:DY:t=for	!	!	!	!	!	!	!	!
4BB-/	f	8B-/L	f	8r	f	24a/LL	f	.	.	.	.	.	8a/L	8f\L	.
.	.	.	.	.	.	24g/	.	.	.	.	.	.	.	.	.
.	.	.	.	.	.	24f#X/JJ	.	.	.	.	.	.	.	.	.
.	.	8r	.	8B-/L 8g	.	24g/LL	.	.	.	.	.	.	8g/	8d\	.
.	.	.	.	.	.	24a/	.	.	.	.	.	.	.	.	.
.	.	.	.	.	.	24b-/JJ	.	.	.	.	.	.	.	.	.
4BB-/	.	8B-/	.	8r	.	24cc\LL	.	.	.	.	.	.	8cc/	8a\J	.
.	.	.	.	.	.	24cc#X\	.	.	.	.	.	.	.	.	.
.	.	.	.	.	.	24dd\JJ	.	.	.	.	.	.	.	.	.
.	.	8r	.	8B-/ 8g	.	24ee\LL	.	.	.	.	.	.	8ee/J	8r	.
.	.	.	.	.	.	24dd\	.	.	.	.	.	.	.	.	.
.	.	.	.	.	.	24cc#\JJ	.	.	.	.	.	.	.	.	.
4BB-/	.	8B-/J	.	8r	.	16ccn'\LL	.	.	.	.	.	.	16cc/LL	4r	.
.	.	.	.	.	.	16b-'\	.	.	.	.	.	.	16b-/	.	.
.	.	8r	.	8B-/J 8g	.	16a'\	.	.	.	.	.	.	16a/	.	.
.	.	.	.	.	.	16g'\JJ	.	.	.	.	.	.	16g/JJ	.	.
=7	=7	=7	=7	=7	=7	=7	=7	=7	=7	=7	=7	=7	=7	=7	=7
!LO:LB:g=original	!	!LO:LB:g=original	!	!	!	!	!	!	!	!	!	!	!	!	!
*	*	*	*	*	*	*	*	*	*	*	*^	*	*	*	*
!	!	!	!	!LO:SIC:s:o=:v:w źródle widoczne tylko dwie pauzy ćwierćnutowe	!	!	!	!	!	!	!	!	!	!	!	!
4C/	.	4A\ 4f	.	4ryy	.	16f`/LL	.	.	.	.	4f/	4A\	f	16f/LL	4f\	.
.	.	.	.	.	.	16c'/	.	.	.	.	.	.	.	16c#X'/	.	.
.	.	.	.	.	.	16f'/	.	.	.	.	.	.	.	16f'/	.	.
.	.	.	.	.	.	16a'/JJ	.	.	.	.	.	.	.	16a'/JJ	.	.
4r	.	(8a\L	.	4r	.	(8cc/L	.	.	.	.	4a/	4f\	.	(8cc/L	8a\L	.
.	.	8g#X\	.	.	.	8bn/	.	.	.	.	.	.	.	8bn/	8f#X\	.
4r	.	8gn\	.	4r	.	8b-X/	.	.	.	.	4r	4ryy	.	8b-X/	8fn\	.
.	.	8e\J)	.	.	.	8a/J)	.	.	.	.	.	.	.	8g/J)	8e\J	.
=8	=8	=8	=8	=8	=8	=8	=8	=8	=8	=8	=8	=8	=8	=8	=8	=8
!	!	!	!	!	!	!	!	!	!	!	!	!LO:LB:g=original	!	!	!	!
!	!	!	!	!	!	!	!	!	!	!	!	!	!	!LO:SIC:s:o=:v:kaudy półnut po prawej stronie	!	!
*	*	*	*	*	*	*	*	*	*	*	*	*	*	*2\right	*2\right	*
16r	.	16r	.	4.c/	.	4.a/	.	.	.	.	4a/	4f\	.	2a/	2f\	.
16C'\LL	.	16c'\LL	.	.	.	.	.	.	.	.	.	.	.	.	.	.
16F'\	.	16f'\	.	.	.	.	.	.	.	.	.	.	.	.	.	.
16A'\JJ	.	16a'\JJ	.	.	.	.	.	.	.	.	.	.	.	.	.	.
4C/	.	4cc\	.	.	.	.	.	.	.	.	4r	2ryy	.	.	.	.
.	.	.	.	(8Bn/L	.	(8g#X/L	.	.	.	.	.	.	.	.	.	.
4CC/	.	4C/ 4c	.	8B-X/	.	8gn/	.	.	.	.	4r	.	.	4g/	4d\	.
.	.	.	.	8G/J)	.	8e/J)	.	.	.	.	.	.	.	.	.	.
=9	=9	=9	=9	=9	=9	=9	=9	=9	=9	=9	=9	=9	=9	=9	=9	=9
*	*	*	*	*	*	*	*	*	*	*	*	*2\right	*	*	*	*
!	!	!	!	!LO:SIC:s:o=:v:w półnutach kaudy po prawej stronie	!	!	!	!	!	!	!LO:SIC:s:o=:v:kaudy półnut po prawej stronie	!	!	!	!	!
2CC/ 2C	.	8r	.	2c/ 2e	.	2g/	.	2.r	.	.	2g/	2c\	.	2g/	2e\	.
.	.	8c\ 8e	.	.	.	.	.	.	.	.	.	.	.	.	.	.
.	.	4A\ 4f	.	.	.	.	.	.	.	.	.	.	.	.	.	.
4FF;/	.	4r;	.	8A;/ 8f	.	8f;/	.	.	.	.	4f;/	4A\	.	4f/	4f;>\	.
.	.	.	.	8r	.	8r	.	.	.	.	.	.	.	.	.	.
=10	=10	=10	=10	=10	=10	=10	=10	=10	=10	=10	=10	=10	=10	=10	=10	=10
!	!	!	!	!	!	!	!	!	!	!	!	!	!	!	!LO:LB:g=original	!
!LO:TX:b:t=dol	!	!LO:TX:b:t=dol	!	!LO:TX:b:t=dol	!	!LO:TX:b:t=dol	!	!	!	!	!LO:TX:b:t=dol	!	!	!LO:TX:b:t=dol	!	!
!	!	!	!	!	!LO:DY:t=pia	!	!	!	!	!	!	!	!	!	!	!
8FF\ 8F	p	8f\	p	8A/L 8f	p	8f/ 8a	p	4cc\	Bądź	.	4f/	4A\	p	8ff/L	8a\L	p
8r	.	8r	.	8r	.	8r	.	.	.	.	.	.	.	8r	8ryy	.
8F\	.	8E/	.	8A/ 8f	.	8f/ 8a	.	(8cc\L	po-	.	4r	2ryy	.	8ff/	8a\	.
8r	.	8r	.	8r	.	8r	.	8ff\	.	.	.	.	.	8r	8ryy	.
8F\	.	8B-/	.	8B-/J 8f	.	8d/ 8b-	.	8dd\J)	.	.	4r	.	.	8dd/J	8b-\J	.
8r	.	8r	.	8r	.	8r	.	8b-\	-zdro-	.	.	.	.	8r	8ryy	.
*	*	*	*	*	*	*	*	*	*	*	*v	*v	*	*	*	*
=11	=11	=11	=11	=11	=11	=11	=11	=11	=11	=11	=11	=11	=11	=11	=11
!	!	!	!	!	!	!	!	!	!	!	!LO:TX:a:t=2.	!	!	!	!
!	!	!	!	!	!	!	!	!	!	!	!LO:N:vis=0	!	!	!	!
4F\	.	4f\	.	4A/ 4f	.	4f/ 4a	.	(8.aW\L	-wio-	.	1.r	.	8.a/L	8.f\L	.
.	.	.	.	.	.	.	.	16b-\Jk)	.	.	.	.	16b-/Jk	16g\Jk	.
8r	.	4F/	.	4r	.	4r	.	4cc\	-na	.	.	.	4cc/	4a\	.
8F`\L	.	.	.	.	.	.	.	.	.	.	.	.	.	.	.
8C`\	.	4r	.	4r	.	4r	.	4r	.	.	.	.	4r	4ryy	.
8AA`\J	.	.	.	.	.	.	.	.	.	.	.	.	.	.	.
=12	=12	=12	=12	=12	=12	=12	=12	=12	=12	=12	=12	=12	=12	=12	=12
*2\right	*	*	*	*	*	*	*	*	*	*	*	*	*	*	*
2D\	.	4d\	.	4d/	.	2d/ 2f	.	(4.f/	pa-	.	.	.	2f/	2d\	.
.	.	4A/	.	4A/	.	.	.	.	.	.	.	.	.	.	.
.	.	.	.	.	.	.	.	32g/LLL	.	.	.	.	.	.	.
.	.	.	.	.	.	.	.	32f/	.	.	.	.	.	.	.
.	.	.	.	.	.	.	.	32e/	.	.	.	.	.	.	.
.	.	.	.	.	.	.	.	32f/JJJ	.	.	.	.	.	.	.
4GG/	.	4B-/	.	4B-/	.	4g/	.	8cc\)	.	.	.	.	4g/	4B-\	.
.	.	.	.	.	.	.	.	8b-\	-nno	.	.	.	.	.	.
=13	=13	=13	=13	=13	=13	=13	=13	=13	=13	=13	=13	=13	=13	=13	=13
!LO:LB:g=original	!	!LO:LB:g=original	!	!LO:LB:g=original	!	!	!	!LO:LB:g=original	!	!	!	!	!	!	!
*	*	*	*	*	*	*	*	*	*	*	*^	*	*	*	*
4C/	.	4c/	.	4A/ 4f	.	4f/ 4a	.	8.a/	Ma-	.	4a/	4f\	.	4a/	4f\	.
.	.	.	.	.	.	.	.	16g/	-ry-	.	.	.	.	.	.	.
8CC/	.	8C/	.	8G/L 8e	.	8d`/L 8g	.	4g/	-ia	.	8g/	8c\	.	8g/L	8e\L	.
8r	.	8r	.	16c'/L	.	16e`/L	.	.	.	.	8r	8ryy	.	16e'/L	16c'\L	.
.	.	.	.	16d'/JJ	.	16f`/JJ	.	.	.	.	.	.	.	16f'/JJ	16d'\JJ	.
4r	.	4r	.	16e'/LL	.	16g`/LL	.	4r	.	.	4r	4ryy	.	16g'/LL	16e'\LL	.
.	.	.	.	16f'/	.	16a`/	.	.	.	.	.	.	.	16a'/	16f'\	.
.	.	.	.	16g'/	.	16b-`/	.	.	.	.	.	.	.	16b-'/	16g'\	.
.	.	.	.	16a'/JJ	.	16cc`/JJ	.	.	.	.	.	.	.	16cc'/JJ	16a'\JJ	.
*	*	*	*	*	*	*	*	*	*	*	*v	*v	*	*	*	*
=14	=14	=14	=14	=14	=14	=14	=14	=14	=14	=14	=14	=14	=14	=14	=14
!	!	!	!	!	!	!	!	!	!	!	!LO:TX:a:t=3.	!	!	!	!
*	*	*	*	*	*	*	*	*2\right	*	*	*	*	*	*	*
!	!	!	!	!	!	!	!	!	!	!	!LO:N:vis=0	!	!	!	!
4r	.	4r	.	2d/ 2b-	.	2f/ 2dd	.	2dd\	Łas-	.	1.r	.	2dd/	2b-\	.
4D\	.	4d\	.	.	.	.	.	.	.	.	.	.	.	.	.
4F#X\	.	4f#X\	.	4f#X/ 4a	.	4cc\	.	4cc\	-kiś	.	.	.	4cc/	4a\	.
=15	=15	=15	=15	=15	=15	=15	=15	=15	=15	=15	=15	=15	=15	=15	=15
2GG\ 2G	.	4e-X\	.	4f#X/	.	4a\ 4cc	.	4cc^\	peł-	.	.	.	4cc/	4a\	.
.	.	8d\	.	8g/	.	8g\ 8b-	.	8b-\	-na	.	.	.	8b-/	8g\	.
.	.	8r	.	8r	.	8r	.	8r	.	.	.	.	8r	8ryy	.
4r	.	4r	.	4r	.	4r	.	[4gg\	pan	.	.	.	4r	4ryy	.
*	*	*	*	*	*	*	*	*	*	*	*	*	*v	*v	*
=16	=16	=16	=16	=16	=16	=16	=16	=16	=16	=16	=16	=16	=16	=16
!	!	!	!	!	!	!LO:LB:g=original	!	!	!	!	!	!	!LO:LB:g=original	!
!	!	!	!	!	!	!	!	!	!	!	!	!	!LO:TX:a:t=3.	!
!	!	!	!	!	!	!	!	!	!	!	!	!	!LO:N:vis=0	!
4BB-/	.	4B-\ 4d	.	4d/ 4b-	.	4f/ 4dd	.	2gg\_	.	.	2.r	.	1.r	.
8BB-/	.	8B-\ 8d	.	8d/ 8b-	.	8f/ 8dd	.	.	.	.	.	.	.	.
8r	.	8r	.	8r	.	8r	.	.	.	.	.	.	.	.
4r	.	4r	.	4r	.	4r	.	(32gg\LLL]	.	.	.	.	.	.
.	.	.	.	.	.	.	.	32ff\	.	.	.	.	.	.
.	.	.	.	.	.	.	.	32ee\	.	.	.	.	.	.
.	.	.	.	.	.	.	.	32dd\	.	.	.	.	.	.
.	.	.	.	.	.	.	.	32cc\	.	.	.	.	.	.
.	.	.	.	.	.	.	.	32b-\	.	.	.	.	.	.
.	.	.	.	.	.	.	.	32a\	.	.	.	.	.	.
.	.	.	.	.	.	.	.	32g\JJJ)	.	.	.	.	.	.
=17	=17	=17	=17	=17	=17	=17	=17	=17	=17	=17	=17	=17	=17	=17
*	*	*	*	*	*	*	*	*	*	*	*^	*	*	*
4C\	.	2C/ 2c	.	2A/ 2f	.	2f/ 2a	.	(8f/L	z-To	.	2f/	2A\	.	.	.
.	.	.	.	.	.	.	.	32g/LL	.	.	.	.	.	.	.
.	.	.	.	.	.	.	.	32f/	.	.	.	.	.	.	.
.	.	.	.	.	.	.	.	32e/	.	.	.	.	.	.	.
.	.	.	.	.	.	.	.	32f/JJJ	.	.	.	.	.	.	.
4r	.	.	.	.	.	.	.	8dd^\L	.	.	.	.	.	.	.
.	.	.	.	.	.	.	.	16cc\Jk	.	.	.	.	.	.	.
.	.	.	.	.	.	.	.	16r	.	.	.	.	.	.	.
4C\	.	4C/ 4c	.	4c/ 4e	.	4g/ 4b-	.	8a^/L	.	.	4g/	4c\	.	.	.
.	.	.	.	.	.	.	.	16g/Jk)	.	.	.	.	.	.	.
.	.	.	.	.	.	.	.	16r	.	.	.	.	.	.	.
=18	=18	=18	=18	=18	=18	=18	=18	=18	=18	=18	=18	=18	=18	=18	=18
!	!	!	!	!	!	!	!	!LO:LB:g=original	!	!	!	!LO:LB:g=original	!	!	!
2FF/ 2F	.	2C/ 2c	.	2A/ 2f	.	2f/ 2a	.	2f/	-bą	.	2f/	2A\	.	2.r	.
4r	.	4r	.	4r	.	4r	.	4r	.	.	4r	4ryy	.	.	.
=19	=19	=19	=19	=19	=19	=19	=19	=19	=19	=19	=19	=19	=19	=19	=19
!	!	!	!	!LO:LB:g=original	!	!	!	!	!	!	!	!	!	!	!
*	*	*	*	*	*	*	*	*	*	*	*	*	*	*^	*
!	!	!	!	!LO:SIC:s:o=:v:for zamiast	!	!	!	!LO:TX:a:t=4.	!	!	!	!	!	!	!	!
!	!	!	!	!	!	!	!LO:DY:t=for	!LO:N:vis=00	!	!	!	!	!	!	!	!
*tremolo	*	*tremolo	*	*	*	*	*	*	*	*	*	*	*	*	*	*
!	!	!	!	!	!	!	!	!	!	!	!	!	!LO:DY:rj	!	!	!
8F\L	f	8f\L 8a	f	4.f/	f	4.a/	f	0.r	.	.	4c/	4A\	f	8a/L	8f\L	.
8F\	.	8f\ 8a	.	.	.	.	.	.	.	.	.	.	.	8r	8ryy	.
8F\	.	8f\ 8a	.	.	.	.	.	.	.	.	4c/	4A\	.	8a/	8f\	.
8F\	.	8f\ 8a	.	(16g/LL	.	(16b-/LL	.	.	.	.	.	.	.	8r	8ryy	.
.	.	.	.	16f/JJ)	.	16a/JJ)	.	.	.	.	.	.	.	.	.	.
8F\	.	8f\ 8a	.	(16e/LL	.	(16g#X/LL	.	.	.	.	4c/	4A\	.	8a/J	8f\J	.
.	.	.	.	16f/)	.	16a/)	.	.	.	.	.	.	.	.	.	.
8F\J	.	8f\J 8a	.	(16e/	.	(16g#/	.	.	.	.	.	.	.	8r	8ryy	.
.	.	.	.	16f/JJ)	.	16a/JJ)	.	.	.	.	.	.	.	.	.	.
=20	=20	=20	=20	=20	=20	=20	=20	=20	=20	=20	=20	=20	=20	=20	=20	=20
!LO:LB:g=original	!	!	!	!	!	!	!	!	!	!	!	!	!	!	!	!
8C\L	.	8c\L	.	8.f#X/L	.	8.a/L	.	.	.	.	4g/	4c\	.	8.a/L	8.f#X\L	.
8C\	.	8g\J 8b-	.	.	.	.	.	.	.	.	.	.	.	.	.	.
.	.	.	.	16g/Jk	.	16b-/Jk	.	.	.	.	.	.	.	16b-/Jk	16g\Jk	.
*	*	*rep	*	*	*	*	*	*	*	*	*	*	*	*	*	*
8C\	.	8c\L	.	8g/	.	8b-/	.	.	.	.	4g/	4c\	.	8b-/L	8g\L	.
8C\	.	8g\J 8b-	.	8r	.	8r	.	.	.	.	.	.	.	16gg'/L	16ee'\L	.
.	.	.	.	.	.	.	.	.	.	.	.	.	.	16ff'/JJ	16dd'\JJ	.
*	*	*Xrep	*	*	*	*	*	*	*	*	*	*	*	*	*	*
*	*	*rep	*	*	*	*	*	*	*	*	*	*	*	*	*	*
8C\	.	8c\L	.	4r	.	4r	.	.	.	.	4g/	4c\	.	16ee'/LL	16cc'\LL	.
.	.	.	.	.	.	.	.	.	.	.	.	.	.	16dd'/	16b-'\	.
8C\J	.	8g\J 8b-	.	.	.	.	.	.	.	.	.	.	.	16cc'/	16a'\	.
.	.	.	.	.	.	.	.	.	.	.	.	.	.	16b-'/JJ	16g'\JJ	.
*	*	*Xrep	*	*	*	*	*	*	*	*	*	*	*	*	*	*
=21	=21	=21	=21	=21	=21	=21	=21	=21	=21	=21	=21	=21	=21	=21	=21	=21
8F\L	.	8f\L 8a	.	4.f/	.	4.a/	.	.	.	.	4a/	4f\	.	4a/	4f\	.
8F\	.	8f\ 8a	.	.	.	.	.	.	.	.	.	.	.	.	.	.
8F\	.	8f\ 8a	.	.	.	.	.	.	.	.	4r	2ryy	.	4r	2ryy	.
8F\J	.	8f\J 8a	.	16e/LL	.	16g/LL	.	.	.	.	.	.	.	.	.	.
.	.	.	.	16d/JJ	.	16f/JJ	.	.	.	.	.	.	.	.	.	.
!LO:SIC:s:o=:v:mixed beam	!	!	!	!	!	!	!	!	!	!	!	!	!	!	!	!
8G/L	.	8Bn\L 8g	.	(16e/LL	.	(16g/LL	.	.	.	.	4r	.	.	4r	.	.
.	.	.	.	16d/	.	16f/	.	.	.	.	.	.	.	.	.	.
8GG/J	.	8B\J 8g	.	16c/	.	16e/	.	.	.	.	.	.	.	.	.	.
.	.	.	.	16Bn/JJ)	.	16d/JJ)	.	.	.	.	.	.	.	.	.	.
*	*	*	*	*	*	*	*	*	*	*	*v	*v	*	*	*	*
*	*	*	*	*	*	*	*	*	*	*	*	*	*v	*v	*
=22	=22	=22	=22	=22	=22	=22	=22	=22	=22	=22	=22	=22	=22	=22
!	!	!	!	!	!	!LO:LB:g=original	!	!	!	!	!	!	!	!
!	!	!	!	!	!	!	!	!	!	!	!LO:TX:a:t=8.	!	!	!
!	!	!	!	!	!	!	!	!	!	!	!LO:N:vis=00	!	!	!
4GG/ 4G	.	8G\L 8f	.	8.d/L	.	8.f/L	.	.	.	.	0.r	.	4r	.
.	.	8c\J 8e	.	.	.	.	.	.	.	.	.	.	.	.
.	.	.	.	16c/Jk	.	16e/Jk	.	.	.	.	.	.	.	.
8C/	.	4c\ 4e	.	4c/	.	4e/	.	.	.	.	.	.	8r	.
*	*	*	*	*	*	*	*	*	*	*	*	*	*^	*
8r	.	.	.	.	.	.	.	.	.	.	.	.	8ee/L	8cc\L	<
4r	.	4r	.	4r	.	4r	.	.	.	.	.	.	8ff/	8dd\	.
.	.	.	.	.	.	.	.	.	.	.	.	.	8ff#X/J	8dd#X\J	.
=23	=23	=23	=23	=23	=23	=23	=23	=23	=23	=23	=23	=23	=23	=23	=23
*	*	*	*	*tremolo	*	*	*	*	*	*	*	*	*	*	*
!	!	!LO:SIC:s:o=:v:pia zmiast p	!	!LO:DY:rj	!	!LO:DY:t=pia	!	!	!	!	!	!	!	!	!
4C/	p	8G/L 8e	p	8c'/L	p	8d'/L	p	(>4.g/	Bło-	.	.	.	8gg/	8ee\	[
.	.	8G/ 8e	.	8e'/	.	8g'/	.	.	.	.	.	.	8r	8ryy	.
4C/	.	8G/ 8e	.	8c'/	.	8d'/	.	.	.	.	.	.	4r	2ryy	.
.	.	8G/ 8e	.	8e'/	.	8g'/	.	8a/)	.	.	.	.	.	.	.
4C/	.	8G/ 8e	.	8c'/	.	8d'/	.	8bn/	-go-	.	.	.	4r	.	.
.	.	8G/J 8e	.	8e'/J	.	8g'/J	.	8cc/	-sła-	.	.	.	.	.	.
*	*	*	*	*	*	*	*	*	*	*	*	*	*v	*v	*
=24	=24	=24	=24	=24	=24	=24	=24	=24	=24	=24	=24	=24	=24	=24
!	!	!	!	!LO:LB:g=original	!	!	!	!	!	!	!	!	!LO:LB:g=original	!
*	*	*	*	*	*	*tremolo	*	*	*	*	*	*	*	*
4C/	.	4c\	.	8c'/L	.	8e/L	.	8ee\	-wio-	.	.	.	4r	.
.	.	.	.	8e'/	.	8g/	.	(32dd\LLL	-naś	.	.	.	.	.
.	.	.	.	.	.	.	.	32cc\	.	.	.	.	.	.
.	.	.	.	.	.	.	.	32bn\	.	.	.	.	.	.
.	.	.	.	.	.	.	.	32a\JJJ)	.	.	.	.	.	.
8r	.	4c\	.	8c'/	.	8e/	.	4g/	ty	.	.	.	8r	.
*	*	*	*	*	*	*	*	*	*	*	*	*	*^	*
!	!	!	!	!	!	!	!	!	!	!	!	!	!	!	!LO:DY:a
8G`\L	.	.	.	8e'/	.	8g/	.	.	.	.	.	.	8gg/L	8g\L	ff ff
8E`\	.	4c\	.	8c'/	.	8e/	.	4r	.	.	.	.	8ee/	8e\	.
8C`\J	.	.	.	8e'/J	.	8g/J	.	.	.	.	.	.	8cc/J	8c\J	.
*	*	*	*	*	*	*	*	*	*	*	*	*	*v	*v	*
=25	=25	=25	=25	=25	=25	=25	=25	=25	=25	=25	=25	=25	=25	=25
!	!	!	!	!	!	!	!	!	!	!	!	!	!LO:TX:a:t=1.	!
4GG/	.	8Bn\L	.	8d'/L	.	8f/L	.	4.g/	mię-	.	.	.	2.r	.
.	.	8d\	.	8f'/	.	8g/	.	.	.	.	.	.	.	.
4r	.	8B\	.	8d'/	.	8f/	.	.	.	.	.	.	.	.
.	.	8d\	.	8f'/	.	8g/	.	8g/	-dzy	.	.	.	.	.
4r	.	8B\	.	8d'/	.	8f/	.	8bn/	nie-	.	.	.	.	.
.	.	8d\J	.	8f'/J	.	8g/J	.	8dd/	-wia-	.	.	.	.	.
=26	=26	=26	=26	=26	=26	=26	=26	=26	=26	=26	=26	=26	=26	=26
!LO:LB:g=original	!	!	!	!	!	!	!	!	!	!	!	!	!	!
*	*	*rep	*	*rep	*	*rep	*	*	*	*	*	*	*	*
!	!	!	!	!	!	!	!	!	!	!	!LO:N:vis=00	!	!	!
4GG/	.	8Bn\L	.	8d'/L	.	8f/L	.	(16.ff\LL	-sta-	.	0.r	.	4r	.
.	.	.	.	.	.	.	.	32ee\JJk	.	.	.	.	.	.
.	.	8d\	.	8f'/	.	8g/	.	32dd\LLL	.	.	.	.	.	.
.	.	.	.	.	.	.	.	32cc\	.	.	.	.	.	.
.	.	.	.	.	.	.	.	32bn\	.	.	.	.	.	.
.	.	.	.	.	.	.	.	32a\JJJ)	.	.	.	.	.	.
8r	.	8B\	.	8d'/	.	8f/	.	4g/	-mi	.	.	.	8r	.
*Xtremolo	*	*	*	*	*	*	*	*	*	*	*	*	*	*
*	*	*	*	*	*	*	*	*	*	*	*	*	*^	*
8GG/L	.	8d\	.	8f'/	.	8g/	.	.	.	.	.	.	(8gg/L	(8ee\L	.
8BBn/	.	8B\	.	8d'/	.	8f/	.	4r	.	.	.	.	8ff/	8dd\	.
8GG/J	.	8d\J	.	8f'/J	.	8g/J	.	.	.	.	.	.	8dd/J)	8bn\J)	.
*	*	*Xrep	*	*Xrep	*	*Xrep	*	*	*	*	*	*	*	*	*
*	*	*Xtremolo	*	*Xtremolo	*	*Xtremolo	*	*	*	*	*	*	*	*	*
=27	=27	=27	=27	=27	=27	=27	=27	=27	=27	=27	=27	=27	=27	=27	=27
!	!	!	!	!	!	!	!	!LO:LB:g=original	!	!	!	!	!	!	!
4C/	.	4G\ 4e	.	4c/	.	4e/	.	4cc\	J	.	.	.	4e/ 4cc	4e\	.
4r	.	4r	.	4r	.	4r	.	(32dd\LLL	Bło-	.	.	.	4r	2ryy	.
.	.	.	.	.	.	.	.	32cc\	.	.	.	.	.	.	.
.	.	.	.	.	.	.	.	32bn\	.	.	.	.	.	.	.
.	.	.	.	.	.	.	.	32cc\JJJ	.	.	.	.	.	.	.
.	.	.	.	.	.	.	.	32ff\LLL	.	.	.	.	.	.	.
.	.	.	.	.	.	.	.	32ee\	.	.	.	.	.	.	.
.	.	.	.	.	.	.	.	32dd#X\	.	.	.	.	.	.	.
.	.	.	.	.	.	.	.	32ee\JJJ	.	.	.	.	.	.	.
4r	.	4r	.	4r	.	4r	.	32gg\LLL	.	.	.	.	4r	.	.
.	.	.	.	.	.	.	.	32ff\	.	.	.	.	.	.	.
.	.	.	.	.	.	.	.	32ee\	.	.	.	.	.	.	.
.	.	.	.	.	.	.	.	32ddn\JJJ	.	.	.	.	.	.	.
.	.	.	.	.	.	.	.	32cc\LLL	.	.	.	.	.	.	.
.	.	.	.	.	.	.	.	32bn\	.	.	.	.	.	.	.
.	.	.	.	.	.	.	.	32a\JJJ)	.	.	.	.	.	.	.
.	.	.	.	.	.	.	.	32g/	-go-	.	.	.	.	.	.
*	*	*	*	*	*	*	*	*	*	*	*	*	*v	*v	*
=28	=28	=28	=28	=28	=28	=28	=28	=28	=28	=28	=28	=28	=28	=28
4r	.	4C/ 4c	.	4r	f	4r	.	(8.g#X^>/L	-sła-	.	.	.	4r	.
.	.	.	.	.	.	.	.	16a/Jk)	.	.	.	.	.	.
*	*	*	*	*	*	*	*	*	*	*	*	*	*^	*
4F\	.	4C/ 4c	.	4c/	.	4a/	.	4a/	-wion	.	.	.	4a/	4c\	.
4F#X\	.	4r	.	4e-X/	.	4a/	.	4r	.	.	.	.	4a/	4f#X\	.
=29	=29	=29	=29	=29	=29	=29	=29	=29	=29	=29	=29	=29	=29	=29	=29
2G;\	.	2C;/ 2c	.	2en;/	.	2g;/	.	16.gn/LL	o-	.	.	.	2cc;/	2e\	.
.	.	.	.	.	.	.	.	32e/K 32cc	.	.	.	.	.	.	.
.	.	.	.	.	.	.	.	16.cc/	.	.	.	.	.	.	.
.	.	.	.	.	.	.	.	32g/JJk 32ee	.	.	.	.	.	.	.
.	.	.	.	.	.	.	.	16ee;\LL	.	.	.	.	.	.	.
.	.	.	.	.	.	.	.	(32ff\L	.	.	.	.	.	.	.
.	.	.	.	.	.	.	.	32ee\	.	.	.	.	.	.	.
.	.	.	.	.	.	.	.	32dd\	.	.	.	.	.	.	.
.	.	.	.	.	.	.	.	32cc\	.	.	.	.	.	.	.
.	.	.	.	.	.	.	.	32bn\	.	.	.	.	.	.	.
.	.	.	.	.	.	.	.	32a\JJJ)	.	.	.	.	.	.	.
4r	.	4r	.	4r	.	4r	.	8g\	-woc	.	.	.	4r	4ryy	.
.	.	.	.	.	.	.	.	16r	.	.	.	.	.	.	.
.	.	.	.	.	.	.	.	16g/	ży-	.	.	.	.	.	.
=30	=30	=30	=30	=30	=30	=30	=30	=30	=30	=30	=30	=30	=30	=30	=30
!	!	!	!	!	!	!	!	!LO:LB:g=original	!	!	!	!	!	!LO:LB:g=original	!
2GG/ 2G	.	2Bn\ 2d	.	2G/ 2f	.	2Bn/ 2g	.	8g/L	-wo-	.	4r	.	2gg/	2bn\	.
.	.	.	.	.	.	.	.	32qqa/LLL	.	.	.	.	.	.	.
.	.	.	.	.	.	.	.	32qqg/	.	.	.	.	.	.	.
.	.	.	.	.	.	.	.	32qqf#X/JJJ	.	.	.	.	.	.	.
.	.	.	.	.	.	.	.	16g/L	.	.	.	.	.	.	.
.	.	.	.	.	.	.	.	16a/JJ	.	.	.	.	.	.	.
.	.	.	.	.	.	.	.	8bn\L	.	.	4r	.	.	.	.
.	.	.	.	.	.	.	.	32qqcc/LLL	.	.	.	.	.	.	.
.	.	.	.	.	.	.	.	32qqb/	.	.	.	.	.	.	.
.	.	.	.	.	.	.	.	32qqa#X/JJJ	.	.	.	.	.	.	.
.	.	.	.	.	.	.	.	16b\L	.	.	.	.	.	.	.
.	.	.	.	.	.	.	.	16cc\JJ	.	.	.	.	.	.	.
.	.	.	.	.	.	.	.	16qqdd/LL	.	.	.	.	.	.	.
.	.	.	.	.	.	.	.	16qqb/JJ	.	.	.	.	.	.	.
4r;	.	4r;	.	4r;	.	4r;	.	4gg;\	.	.	4r;	.	4r;	4ryy	.
.	.	.	.	.	.	.	.	8qqbnL\	.	.	.	.	.	.	.
.	.	.	.	.	.	.	.	(16qqccL\	.	.	.	.	.	.	.
.	.	.	.	.	.	.	.	16qq\b\	.	.	.	.	.	.	.
.	.	.	.	.	.	.	.	16qqa#X\	.	.	.	.	.	.	.
.	.	.	.	.	.	.	.	16qqb\JJ)	.	.	.	.	.	.	.
4r	.	4ryy	.	4ryy	.	4ryy	.	8.ee^\	.	.	4r	.	4ryy	4ryy	.
.	.	.	.	.	.	.	.	16dd\	-ta	.	.	.	.	.	.
=31	=31	=31	=31	=31	=31	=31	=31	=31	=31	=31	=31	=31	=31	=31	=31
!	!	!	!	!	!	!LO:LB:g=original	!	!	!	!	!	!	!	!	!
8r	.	8r	.	8r	.	8r	.	8dd^\	Twe-	.	4r	.	8r	8ryy	.
8GG/ 8G	.	8G\ 8f	.	8Bn/ 8g	.	8d/ 8a#X	.	8r	.	.	.	.	8dd/	8bn\	.
4C;/	.	4G;\ 4e	.	4c;/ 4e	.	4e;/ 4cc	.	4cc\	-go	.	4r;	.	4ee;/	4cc\	.
4r	.	4r;	.	4r;	.	4r;	.	4r;	.	.	4r;	.	4r;	4ryy	.
*	*	*	*	*	*	*	*	*	*	*	*	*	*v	*v	*
=32||	=32||	=32||	=32||	=32||	=32||	=32||	=32||	=32||	=32||	=32||	=32||	=32||	=32||	=32||
!LO:LB:g=original	!	!	!	!	!	!	!	!	!	!	!LO:LB:g=original	!	!	!
*M4/4	*	*M4/4	*	*M4/4	*	*M4/4	*	*M4/4	*	*	*M4/4	*	*M4/4	*
*met(c)	*	*met(c)	*	*met(c)	*	*met(c)	*	*met(c)	*	*	*met(c)	*	*met(c)	*
*	*	*	*	*	*	*	*	*	*	*	*	*	*^	*
!LO:TX:a:t=Maestoso. Allegretto	!	!LO:TX:a:t=Maestoso\nAllegretto	!	!LO:TX:a:t=Maestoso\nAllegretto	!	!LO:TX:a:t=Maestoso.\nAllegreto	!	!LO:TX:a:t=Allegretto	!	!	!LO:TX:a:t=Maestoso.\nAllegretto	!	!LO:TX:a:t=Maestoso.\nAllegretto	!	!
4r	.	4r	.	(8f/L	.	(8a/L	.	4r	.	.	4r	.	(8a/L	8f\L	.
.	.	.	.	8g/	.	8b-/	.	.	.	.	.	.	8b-/	8g\	.
8r	.	8r	.	8g#X/J)	.	8bn/J)	.	8r	.	.	8r	.	8bn/J)	8g#X\J	.
=33	=33	=33	=33	=33	=33	=33	=33	=33	=33	=33	=33	=33	=33	=33	=33
*	*	*	*	*	*	*	*	*	*	*	*^	*	*	*	*
!	!	!	!	!	!	!	!LO:DY:rj:t=for	!LO:TX:a:t=10.	!	!	!	!	!LO:DY:rj	!	!	!
4FF/	f	4f\ 4a	f	8A/L	f	4cc\	f	00r	.	.	4f/	4A\	f	4cc/	4a\	.
.	.	.	.	8f/	.	.	.	.	.	.	.	.	.	.	.	.
4F\	.	4f\ 4a	.	8c/	.	(16dd\LL	.	.	.	.	4a/	4f\	.	(16dd/LL	(16b-\LL	.
.	.	.	.	.	.	16cc\	.	.	.	.	.	.	.	16cc/	16a\	.
.	.	.	.	8f/J	.	16bn\	.	.	.	.	.	.	.	16bn/	16g#X\	.
.	.	.	.	.	.	16cc\JJ)	.	.	.	.	.	.	.	16cc/JJ)	16a\JJ)	.
*	*	*	*	*rep	*	*	*	*	*	*	*	*	*	*	*	*
4F\	.	4f\ 4a	.	8A/L	.	4ff\	.	.	.	.	4a/	4f\	.	4ff/	4a\	.
.	.	.	.	8f/	.	.	.	.	.	.	.	.	.	.	.	.
4F\	.	4f\ 4a	.	8c/	.	4a\	.	.	.	.	4a/	4f\	.	4a/	4f\	.
.	.	.	.	8f/J	.	.	.	.	.	.	.	.	.	.	.	.
*	*	*	*	*Xrep	*	*	*	*	*	*	*	*	*	*	*	*
=34	=34	=34	=34	=34	=34	=34	=34	=34	=34	=34	=34	=34	=34	=34	=34	=34
!	!	!	!	!	!	!	!	!	!	!	!	!	!	!LO:LB:g=original	!	!
*	*	*	*	*	*	*	*	*	*	*	*	*	*	*	*tremolo	*
4C/	.	4c\ 4g	.	8G/L	.	4.dd\	.	.	.	.	4g/	4c\	.	4.dd/	8e\L	.
.	.	.	.	8e/	.	.	.	.	.	.	.	.	.	.	8g\	.
4C/	.	4c\ 4g	.	8B-/	.	.	.	.	.	.	4g/	4c\	.	.	8e\	.
.	.	.	.	8e/J	.	8cc\	.	.	.	.	.	.	.	8cc/	8g\J	.
*	*	*	*	*rep	*	*	*	*	*	*	*	*	*	*	*rep	*
4C/	.	4c\ 4g	.	8G/L	.	4f/	.	.	.	.	4g/	4c\	.	4g/	8e\L	.
.	.	.	.	8e/	.	.	.	.	.	.	.	.	.	.	8g\	.
4C/	.	4c\ 4g	.	8B-/	.	4r	.	.	.	.	4g/	4c\	.	4r	8e\	.
.	.	.	.	8e/J	.	.	.	.	.	.	.	.	.	.	8g\J	.
*	*	*	*	*Xrep	*	*	*	*	*	*	*	*	*	*	*Xrep	*
=35	=35	=35	=35	=35	=35	=35	=35	=35	=35	=35	=35	=35	=35	=35	=35	=35
!	!	!	!	!	!	!LO:LB:g=original	!	!	!	!	!	!	!	!	!	!
*rep	*	*rep	*	*rep	*	*	*	*	*	*	*rep	*rep	*	*	*	*
4C/	.	4c\ 4g	.	8G/L	.	4g/	.	.	.	.	4g/	4c\	.	4g/	8e\L	.
.	.	.	.	8e/	.	.	.	.	.	.	.	.	.	.	8g\	.
4C/	.	4c\ 4g	.	8B-/	.	4dd\	.	.	.	.	4g/	4c\	.	4dd/	8e\	.
.	.	.	.	8e/J	.	.	.	.	.	.	.	.	.	.	8g\J	.
*	*	*	*	*Xrep	*	*	*	*	*	*	*	*	*	*	*	*
*	*	*	*	*rep	*	*tuplet	*	*	*	*	*	*	*	*Xtuplet	*rep	*
4C/	.	4c\ 4g	.	8G/L	.	12dd\L	.	.	.	.	4g/	4c\	.	12dd/L	8e\L	.
.	.	.	.	.	.	12cc\	.	.	.	.	.	.	.	12cc/	.	.
.	.	.	.	8e/	.	.	.	.	.	.	.	.	.	.	8g\	.
.	.	.	.	.	.	12b-\J	.	.	.	.	.	.	.	12b-/J	.	.
4C/	.	4c\ 4g	.	8B-/	.	12b-\L	.	.	.	.	4g/	4c\	.	12b-/L	8e\	.
.	.	.	.	.	.	12a\	.	.	.	.	.	.	.	12a/	.	.
.	.	.	.	8e/J	.	.	.	.	.	.	.	.	.	.	8g\J	.
.	.	.	.	.	.	12g\J	.	.	.	.	.	.	.	12g/J	.	.
*Xrep	*	*Xrep	*	*Xrep	*	*	*	*	*	*	*Xrep	*Xrep	*	*Xtremolo	*Xrep	*
*	*	*	*	*	*	*	*	*	*	*	*v	*v	*	*	*	*
=36	=36	=36	=36	=36	=36	=36	=36	=36	=36	=36	=36	=36	=36	=36	=36
!	!	!	!	!LO:LB:g=original	!	!	!	!	!	!	!	!	!	!	!
4F\	.	4f\ 4a	.	(4.e/	.	4.g#X/	.	.	.	.	4r	.	4.g#X/	4.e\	.
*	*	*	*	*	*	*	*	*	*	*	*^	*	*	*	*
4F\	.	4f\ 4a	.	.	.	.	.	.	.	.	4a/	4f\	.	.	.	.
.	.	.	.	8f/)	.	8a/	.	.	.	.	.	.	.	8a/	8f\	.
4F\	.	4f\ 4a	.	4f/	.	4a/	.	.	.	.	4a/	4f\	.	4a/	4f\	.
4r	.	4r	.	4r	.	4r	.	.	.	.	4r	4ryy	.	4r	4ryy	.
=37	=37	=37	=37	=37	=37	=37	=37	=37	=37	=37	=37	=37	=37	=37	=37	=37
!LO:LB:g=original	!	!LO:LB:g=original	!	!	!	!	!	!	!	!	!	!LO:LB:g=original	!	!	!	!
4F\	.	8F/L	.	8r	.	(16d/LL	.	00r	.	.	4f/	4A\	.	4ff/	4a\	.
.	.	.	.	.	.	16f/	.	.	.	.	.	.	.	.	.	.
.	.	8A/ 8f	.	8f'/L 8a	.	16a/)	.	.	.	.	.	.	.	.	.	.
.	.	.	.	.	.	16cc/JJ	.	.	.	.	.	.	.	.	.	.
4r	.	8A/ 8f	.	8f'/ 8a	.	(16ff\LL	.	.	.	.	4r	4ryy	.	8ff/L	8a\L	.
.	.	.	.	.	.	16ee\	.	.	.	.	.	.	.	.	.	.
.	.	8A/J 8f	.	8f'/J 8a	.	16dd\	.	.	.	.	.	.	.	8ff/J	8a\J	.
.	.	.	.	.	.	16cc\JJ)	.	.	.	.	.	.	.	.	.	.
*	*	*rep	*	*	*	*	*	*	*	*	*	*	*	*	*	*
4FF/	.	8F/L	.	8r	.	(16bn\LL	.	.	.	.	4a/	4f\	.	4ff/	4a\	.
.	.	.	.	.	.	16cc\	.	.	.	.	.	.	.	.	.	.
*	*	*	*	*rep	*	*	*	*	*	*	*	*	*	*	*	*
.	.	8A/ 8f	.	8f'/L 8a	.	16dd\	.	.	.	.	.	.	.	.	.	.
.	.	.	.	.	.	16cc\JJ)	.	.	.	.	.	.	.	.	.	.
4r	.	8A/ 8f	.	8f'/ 8a	.	(16b-X\LL	.	.	.	.	4a/	4f\	.	4r	4ryy	.
.	.	.	.	.	.	16a\	.	.	.	.	.	.	.	.	.	.
.	.	8A/J 8f	.	8f'/J 8a	.	16g\	.	.	.	.	.	.	.	.	.	.
.	.	.	.	.	.	16f\JJ)	.	.	.	.	.	.	.	.	.	.
*	*	*Xrep	*	*Xrep	*	*	*	*	*	*	*	*	*	*	*	*
=38	=38	=38	=38	=38	=38	=38	=38	=38	=38	=38	=38	=38	=38	=38	=38	=38
4BB-/	.	8B-\L	.	8r	.	8B-'/L	.	.	.	.	4b-/	4d\	.	8B-/L	4B-\	.
.	.	8B-\ 8d	.	8d'/L 8b-	.	16d'/L	.	.	.	.	.	.	.	16d'/L	.	.
.	.	.	.	.	.	16f'/JJ	.	.	.	.	.	.	.	16f'/JJ	.	.
4BB-/	.	8B-\ 8d	.	8d'/ 8b-	.	16b-'/LL	.	.	.	.	4r	4ryy	.	16b-/LL	4d\	.
.	.	.	.	.	.	16d'/	.	.	.	.	.	.	.	16d'/	.	.
.	.	8B-\J 8d	.	8d'/J 8b-	.	16f'/	.	.	.	.	.	.	.	16f'/	.	.
.	.	.	.	.	.	16b-'/JJ	.	.	.	.	.	.	.	16b-'/JJ	.	.
*	*	*rep	*	*	*	*	*	*	*	*	*	*	*	*	*	*
4BB-/	.	8B-\L	.	8r	.	16dd'\LL	.	.	.	.	2r	2ryy	.	16dd/LL	4b-\	.
.	.	.	.	.	.	16f'\	.	.	.	.	.	.	.	16f'/	.	.
*	*	*	*	*rep	*	*	*	*	*	*	*	*	*	*	*	*
.	.	8B-\ 8d	.	8d'/L 8b-	.	16b-'\	.	.	.	.	.	.	.	16b-'/	.	.
.	.	.	.	.	.	16dd'\JJ	.	.	.	.	.	.	.	16dd'/JJ	.	.
4r	.	8B-\ 8d	.	8d'/ 8b-	.	8ff\L	.	.	.	.	.	.	.	8ff/L	8dd\L	.
.	.	8B-\J 8d	.	8d'/J 8b-	.	8dd\J	.	.	.	.	.	.	.	8dd/J	8b-\J	.
*	*	*Xrep	*	*Xrep	*	*	*	*	*	*	*	*	*	*	*	*
=39	=39	=39	=39	=39	=39	=39	=39	=39	=39	=39	=39	=39	=39	=39	=39	=39
!	!	!	!	!	!	!LO:LB:g=original	!	!	!	!	!	!	!	!	!LO:LB:g=original	!
4F\	.	4A\ 4f	.	8a\L	.	8cc\L	.	.	.	.	4a/	4f\	.	8cc/L	8cc\L	.
.	.	.	.	8a\	.	8ff\	.	.	.	.	.	.	.	8ff/	8g\	.
4r	.	4r	.	8b-\	.	8gg\	.	.	.	.	4r	4ryy	.	8gg/	8b-\	.
.	.	.	.	8bn\J	.	8gg#X\J	.	.	.	.	.	.	.	8gg#X/J	8bn\J	.
4F\	.	4A\ 4f	.	8cc\L	.	8aa\L	.	.	.	.	4f/	4A\	.	8aa/L	8cc\L	.
.	.	.	.	8f\	.	8a\	.	.	.	.	.	.	.	8a/	8f\	.
4r	.	4r	.	8g\	.	8b-\	.	.	.	.	4r	4ryy	.	8b-X/	8g\	.
.	.	.	.	8g#X\J	.	8bn\J	.	.	.	.	.	.	.	8bn/J	8g#X\J	.
=40	=40	=40	=40	=40	=40	=40	=40	=40	=40	=40	=40	=40	=40	=40	=40	=40
!	!	!	!	!LO:LB:g=original	!	!	!	!	!	!	!	!	!	!	!	!
4F\	.	4f\ 4a	.	8a/L	.	8cc\L	.	.	.	.	4f/	4A\	.	8cc/L	8a\L	.
.	.	.	.	16g#X/L	.	16bn\L	.	.	.	.	.	.	.	16bn/L	16g#X\L	.
.	.	.	.	16a/JJ	.	16cc\JJ	.	.	.	.	.	.	.	16cc/JJ	16a\JJ	.
4F\	.	4r	.	8b-/L	.	8dd\L	.	.	.	.	4r	4ryy	.	(8dd/L	8b\L	.
.	.	.	.	16a/Jk	.	16cc\Jk	.	.	.	.	.	.	.	16cc/Jk)	16a\Jk	.
.	.	.	.	16r	.	16r	.	.	.	.	.	.	.	16r	16ryy	.
4C\	.	4f\ 4b-	.	8a/L	.	8cc\L	.	.	.	.	2r	2ryy	.	(8cc/L	8a\L	.
.	.	.	.	16g#/Jk	.	16b\Jk	.	.	.	.	.	.	.	16b/Jk)	16g#\Jk	.
.	.	.	.	16r	.	16r	.	.	.	.	.	.	.	16r	16ryy	.
4F\	.	4f\ 4a	.	8g#/L	.	8b/L	.	.	.	.	.	.	.	(8b/L	8g#\L	.
.	.	.	.	16f/Jk	.	16a/Jk	.	.	.	.	.	.	.	16a/Jk)	16f\Jk	.
.	.	.	.	16r	.	16r	.	.	.	.	.	.	.	16r	16ryy	.
*	*	*	*	*	*	*	*	*	*	*	*v	*v	*	*	*	*
=41	=41	=41	=41	=41	=41	=41	=41	=41	=41	=41	=41	=41	=41	=41	=41
4F\	.	4f\ 4a	.	8.c/L	.	8.a/L	.	0r	.	.	4r	.	(8a/L	8f\L	.
.	.	.	.	.	.	.	.	.	.	.	.	.	8g/J)	8e\J	.
.	.	.	.	16B-/Jk	.	16g/Jk	.	.	.	.	.	.	.	.	.
*	*	*	*	*	*	*	*	*	*	*	*^	*	*	*	*
4F\	.	2B-\ 2f	.	2A/	.	2f/	.	.	.	.	4f/	4A\	.	4g/	4e\	.
4F\	.	.	.	.	.	.	.	.	.	.	4r	4ryy	.	4r	4ryy	.
4C/	.	4c\ 4e	.	4c/	.	8.g/L	.	.	.	.	4g/	4c\	.	8g/L	8e\L	.
.	.	.	.	.	.	.	.	.	.	.	.	.	.	8e/J	8c\J	.
.	.	.	.	.	.	16e/Jk	.	.	.	.	.	.	.	.	.	.
=42	=42	=42	=42	=42	=42	=42	=42	=42	=42	=42	=42	=42	=42	=42	=42	=42
!	!	!LO:LB:g=original	!	!	!	!	!	!	!	!	!	!LO:LB:g=original	!	!	!	!
2C/	.	2c\	.	2e/	.	8.e/L	.	.	.	.	2g/	2c\	.	2b-/	2g\	.
.	.	.	.	.	.	16f/Jk	.	.	.	.	.	.	.	.	.	.
.	.	.	.	.	.	8.g/L	.	.	.	.	.	.	.	.	.	.
.	.	.	.	.	.	16e/Jk	.	.	.	.	.	.	.	.	.	.
4FF/	.	4A/	.	4c/	.	4f/	.	.	.	.	4f/	4A\	.	4a/	4f\	.
4r	.	4r	.	4r	.	4r	.	.	.	.	4r	4ryy	.	4r	4r	.
*	*	*	*	*	*	*	*	*	*	*	*	*	*	*v	*v	*
=43!|:	=43!|:	=43!|:	=43!|:	=43!|:	=43!|:	=43!|:	=43!|:	=43!|:	=43!|:	=43!|:	=43!|:	=43!|:	=43!|:	=43!|:	=43!|:
!LO:LB:g=original	!	!	!	!	!	!	!	!	!	!	!	!	!	!LO:LB:g=original	!
*	*	*	*	*tremolo	*	*tremolo	*	*	*	*	*	*	*	*	*
!	!	!	!	!LO:TX:b:t=dol	!	!	!	!	!	!	!	!	!	!	!
!	!	!	!	!	!	!LO:TX:b:t=dolce	!LO:DY:t=pia	!	!	!	!	!	!	!LO:TX:a:t=5.	!
4F\	p	4f\ 4a	p	8f/L	p	8a/L	p	(4cc\	Świę-	.	4a/	4f\	p	00r	.
.	.	.	.	8c/	.	8c/	.	.	.	.	.	.	.	.	.
4r	.	4r	.	8f/	.	8a/	.	16dd\LL	.	.	4f/	4A\	.	.	.
.	.	.	.	.	.	.	.	16cc\	.	.	.	.	.	.	.
.	.	.	.	8c/J	.	8c/J	.	16bn\	.	.	.	.	.	.	.
.	.	.	.	.	.	.	.	16cc\JJ	.	.	.	.	.	.	.
*	*	*	*	*rep	*	*rep	*	*	*	*	*	*	*	*	*
4F\	.	4f\ 4a	.	8f/L	.	8a/L	.	4ff\)	.	.	4f/	4A\	.	.	.
.	.	.	.	8c/	.	8c/	.	.	.	.	.	.	.	.	.
4r	.	4r	.	8f/	.	8a/	.	4a\	-ta	.	4r	4ryy	.	.	.
.	.	.	.	8c/J	.	8c/J	.	.	.	.	.	.	.	.	.
*	*	*	*	*Xrep	*	*Xrep	*	*	*	*	*	*	*	*	*
*	*	*	*	*	*	*	*	*	*	*	*v	*v	*	*	*
=44	=44	=44	=44	=44	=44	=44	=44	=44	=44	=44	=44	=44	=44	=44
4E\	.	4c\ 4e	.	8g/L	.	8b-/L	.	4.dd\	Ma-	.	4r	.	.	.
.	.	.	.	8c/	.	8c/	.	.	.	.	.	.	.	.
*	*	*	*	*	*	*	*	*	*	*	*^	*	*	*
4r	.	4r	.	8g/	.	8b-/	.	.	.	.	4g/	4c\	.	.	.
.	.	.	.	8c/J	.	8c/J	.	8cc\	-ry-	.	.	.	.	.	.
*	*	*	*	*rep	*	*rep	*	*	*	*	*	*	*	*	*
4E\	.	4c\ 4e	.	8g/L	.	8b-/L	.	4g/	-ia-	.	4g/	4c\	.	.	.
.	.	.	.	8c/	.	8c/	.	.	.	.	.	.	.	.	.
4r	.	4r	.	8g/	.	8b-/	.	4r	.	.	4g/	4c\	.	.	.
.	.	.	.	8c/J	.	8c/J	.	.	.	.	.	.	.	.	.
*	*	*	*	*Xrep	*	*Xrep	*	*	*	*	*	*	*	*	*
*	*	*	*	*	*	*	*	*	*	*	*v	*v	*	*	*
=45	=45	=45	=45	=45	=45	=45	=45	=45	=45	=45	=45	=45	=45	=45
!	!	!	!	!	!	!	!	!LO:LB:g=original	!	!	!	!	!	!
*rep	*	*rep	*	*rep	*	*	*	*	*	*	*rep	*rep	*	*
4E\	.	4c\ 4e	.	8g/L	.	8b-/L	.	(4g/	-Ma-	.	4r	.	.	.
.	.	.	.	8c/	.	8c/	.	.	.	.	.	.	.	.
*	*	*	*	*	*	*	*	*	*	*	*^	*	*	*
4r	.	4r	.	8g/	.	8b-/	.	4dd\	.	.	4g/	4c\	.	.	.
.	.	.	.	8c/J	.	8c/J	.	.	.	.	.	.	.	.	.
*	*	*	*	*Xrep	*	*	*	*	*	*	*	*	*	*	*
*	*	*	*	*rep	*	*rep	*	*	*	*	*	*	*	*	*
4E\	.	4c\ 4e	.	8g/L	.	8b-/L	.	12dd\L	.	.	4g/	4c\	.	.	.
.	.	.	.	.	.	.	.	12cc\	.	.	.	.	.	.	.
.	.	.	.	8c/	.	8c/	.	.	.	.	.	.	.	.	.
.	.	.	.	.	.	.	.	12b-\J)	.	.	.	.	.	.	.
4r	.	4r	.	8g/	.	8b-/	.	12b-\L	-tko	.	4g/	4c\	.	.	.
.	.	.	.	.	.	.	.	12a\	.	.	.	.	.	.	.
.	.	.	.	8c/J	.	8c/J	.	.	.	.	.	.	.	.	.
.	.	.	.	.	.	.	.	12g\J	.	.	.	.	.	.	.
*Xrep	*	*Xrep	*	*Xrep	*	*Xrep	*	*	*	*	*Xrep	*Xrep	*	*	*
*	*	*	*	*	*	*	*	*	*	*	*v	*v	*	*	*
=46	=46	=46	=46	=46	=46	=46	=46	=46	=46	=46	=46	=46	=46	=46
!	!	!	!	!LO:LB:g=original	!	!	!	!	!	!	!	!	!	!
4F\	.	4c\	.	8e/L	.	8g#X/L	.	(4.g#X/	Bo-	.	4r	.	.	.
.	.	.	.	8c/	.	8c/	.	.	.	.	.	.	.	.
*	*	*	*	*	*	*	*	*	*	*	*^	*	*	*
4r	.	4f\	.	8f/	.	8a/	.	.	.	.	4f/	4A\	.	.	.
.	.	.	.	8c/J	.	8c/J	.	8a/)	.	.	.	.	.	.	.
4F\	.	4f\	.	8f/L	.	8a/L	.	4a/	-ża	.	4f/	4A\	.	.	.
.	.	.	.	8c/	.	8c/	.	.	.	.	.	.	.	.	.
4r	.	4f\	.	8f/	.	8a/	.	4r	.	.	4f/	4A\	.	.	.
.	.	.	.	8c/J	.	8c/J	.	.	.	.	.	.	.	.	.
*	*	*	*	*	*	*	*	*	*	*	*v	*v	*	*	*
=47	=47	=47	=47	=47	=47	=47	=47	=47	=47	=47	=47	=47	=47	=47
!	!	!	!	!	!	!	!	!	!	!	!LO:TX:a:t=4.	!	!	!
2D\	.	4d\	.	8f/L	.	8a/L	.	2dd\	módl	.	00r	.	1r	.
.	.	.	.	8d/	.	8d/	.	.	.	.	.	.	.	.
.	.	4d\	.	8f/	.	8a/	.	.	.	.	.	.	.	.
.	.	.	.	8d/J	.	8d/J	.	.	.	.	.	.	.	.
*	*	*	*	*rep	*	*rep	*	*	*	*	*	*	*	*
2D\	.	4d\	.	8f/L	.	8a/L	.	4ee\	się	.	.	.	.	.
.	.	.	.	8d/	.	8d/	.	.	.	.	.	.	.	.
.	.	4d\	.	8f/	.	8a/	.	4ff\	za	.	.	.	.	.
.	.	.	.	8d/J	.	8d/J	.	.	.	.	.	.	.	.
*	*	*	*	*Xrep	*	*Xrep	*	*	*	*	*	*	*	*
=48	=48	=48	=48	=48	=48	=48	=48	=48	=48	=48	=48	=48	=48	=48
*	*	*	*	*	*	*	*	*	*	*	*	*	*^	*
2GG/	.	2f\	.	8en/L	.	8g/L	.	2ff^\	na-	.	.	.	2ff/	1r	.
.	.	.	.	8B-/	.	8B-/	.	.	.	.	.	.	.	.	.
.	.	.	.	8e/	.	8g/	.	.	.	.	.	.	.	.	.
.	.	.	.	8B-/J	.	8B-/J	.	.	.	.	.	.	.	.	.
*	*	*	*	*rep	*	*rep	*	*	*	*	*	*	*	*	*
2r	.	4e\	.	8e/L	.	8g/L	.	4ee\	-mi	.	.	.	4ee/	.	.
.	.	.	.	8B-/	.	8B-/	.	.	.	.	.	.	.	.	.
.	.	4e-X\	.	8e/	.	8g/	.	4ee-X\	grze-	.	.	.	4ee-X/	.	.
.	.	.	.	8B-/J	.	8B-/J	.	.	.	.	.	.	.	.	.
*	*	*	*	*Xrep	*	*Xrep	*	*	*	*	*	*	*	*	*
=49	=49	=49	=49	=49	=49	=49	=49	=49	=49	=49	=49	=49	=49	=49	=49
!	!	!	!	!	!	!LO:LB:g=original	!	!	!	!	!	!	!	!	!
1AA	.	2.d\	.	8d/L	.	8f/L	.	(2ddW\	-szne-	.	.	.	2dd/	1r	.
.	.	.	.	8A/	.	8B-/	.	.	.	.	.	.	.	.	.
.	.	.	.	8d/	.	8f/	.	.	.	.	.	.	.	.	.
.	.	.	.	8A/	.	8B-/	.	.	.	.	.	.	.	.	.
!	!	!	!	!	!	!	!	!	!	!	!	!	!	!	!LO:DY:a
.	.	.	.	8d/	.	8f/	.	(4ff\)	.	.	.	.	4ff/	.	f
.	.	.	.	8A/J	.	8B-/J	.	.	.	.	.	.	.	.	.
.	.	4A/	.	8c#X/L	.	8e/L	.	4een\)	.	.	.	.	4ee/	.	.
.	.	.	.	8A/J	.	8A/J	.	.	.	.	.	.	.	.	.
*	*	*	*	*	*	*Xtremolo	*	*	*	*	*	*	*	*	*
=50	=50	=50	=50	=50	=50	=50	=50	=50	=50	=50	=50	=50	=50	=50	=50
!	!	!LO:LB:g=original	!	!	!	!	!	!LO:LB:g=original	!	!	!	!	!	!	!
2D\	.	2d\	.	2d/	.	2d/	.	2dd\	-mi	.	.	.	2dd/	2r	.
2r	.	2r	.	2r	.	8r	.	2r	.	.	.	.	8r	8ryy	.
.	.	.	.	.	.	(8a\L	.	.	.	.	.	.	8a/L	8f\L	.
.	.	.	.	.	.	8b-\	.	.	.	.	.	.	8b-/	8g\	.
.	.	.	.	.	.	8bn\J)	.	.	.	.	.	.	8bn/J	8g#X\J	.
=51	=51	=51	=51	=51	=51	=51	=51	=51	=51	=51	=51	=51	=51	=51	=51
!LO:LB:g=original	!	!	!	!	!	!	!	!	!	!	!LO:LB:g=original	!	!	!	!
!	!	!	!	!	!	!	!	!LO:TX:a:t=2.	!	!	!	!	!	!	!
4F\	.	4f\ 4a	.	8A/L	.	4cc\	.	0r	.	.	4r	.	4cc/	4a\	.
.	.	.	.	8f/	.	.	.	.	.	.	.	.	.	.	.
*	*	*	*	*	*	*	*	*	*	*	*^	*	*	*	*
4F\	.	4f\ 4a	.	8c/	.	(16dd\LL	.	.	.	.	4a/	4f\	.	16dd/LL	16b-\LL	.
.	.	.	.	.	.	16cc\	.	.	.	.	.	.	.	16cc/	16a\	.
.	.	.	.	8f/J	.	16bn\	.	.	.	.	.	.	.	16bn/	16g#X\	.
.	.	.	.	.	.	16cc\JJ)	.	.	.	.	.	.	.	16cc/JJ	16a\JJ	.
*	*	*	*	*rep	*	*	*	*	*	*	*	*	*	*	*	*
4F\	.	4f\ 4a	.	8A/L	.	4ff\	.	.	.	.	4a/	4f\	.	8ff/L	8a\L	.
.	.	.	.	8f/	.	.	.	.	.	.	.	.	.	8r	8f\J	.
4F\	.	4f\ 4a	.	8c/	.	4a\	.	.	.	.	4a/	4f\	.	8a/J	8ryy	.
.	.	.	.	8f/J	.	.	.	.	.	.	.	.	.	8r	8ryy	.
*	*	*	*	*Xrep	*	*	*	*	*	*	*	*	*	*	*	*
*	*	*	*	*	*	*	*	*	*	*	*v	*v	*	*	*	*
=52	=52	=52	=52	=52	=52	=52	=52	=52	=52	=52	=52	=52	=52	=52	=52
!	!	!	!	!LO:LB:g=original	!	!	!	!	!	!	!	!	!	!	!
*	*	*	*	*	*	*	*	*	*	*	*	*	*	*tremolo	*
4C/	.	4c\ 4g	.	8G/L	.	(4.dd\	.	.	.	.	4r	.	4.dd/	8e\L	.
.	.	.	.	8e/	.	.	.	.	.	.	.	.	.	8g\	.
*	*	*	*	*	*	*	*	*	*	*	*^	*	*	*	*
4C/	.	4c\ 4g	.	8B-/	.	.	.	.	.	.	4g/	4c\	.	.	8e\	.
.	.	.	.	8e/J	.	8cc\)	.	.	.	.	.	.	.	8cc/	8g\J	.
*	*	*	*	*rep	*	*	*	*	*	*	*	*	*	*	*rep	*
4C/	.	4c\ 4g	.	8G/L	.	4g/	.	.	.	.	4g/	4c\	.	4g/	8e\L	.
.	.	.	.	8e/	.	.	.	.	.	.	.	.	.	.	8g\	.
4C/	.	4c\ 4g	.	8B-/	.	4r	.	.	.	.	4g/	4c\	.	4r	8e\	.
.	.	.	.	8e/J	.	.	.	.	.	.	.	.	.	.	8g\J	.
*	*	*	*	*Xrep	*	*	*	*	*	*	*	*	*	*Xtremolo	*Xrep	*
*	*	*	*	*Xtremolo	*	*	*	*	*	*	*	*	*	*	*Xtremolo	*
*	*	*	*	*	*	*	*	*	*	*	*v	*v	*	*	*	*
*	*	*	*	*	*	*	*	*	*	*	*	*	*v	*v	*
=53	=53	=53	=53	=53	=53	=53	=53	=53	=53	=53	=53	=53	=53	=53
!	!	!	!	!	!	!	!	!	!	!	!	!	!LO:LB:g=original	!
*rep	*	*rep	*	*	*	*	*	*	*	*	*rep	*rep	*	*
4C/	.	4c\ 4g	.	8r	.	8r	.	(4g/	Ma-	.	4r	.	4r	.
.	.	.	.	8c/L	.	8c/L	.	.	.	.	.	.	.	.
*	*	*	*	*	*	*	*	*	*	*	*^	*	*^	*
4C/	.	4c\ 4g	.	8g/	.	8b-/	.	4dd\	.	.	4g/	4c\	.	4b-/	4g\	.
.	.	.	.	8c/J	.	8c/J	.	.	.	.	.	.	.	.	.	.
*	*	*	*	*tremolo	*	*tremolo	*	*	*	*	*	*	*	*	*	*
4C/	.	4c\ 4g	.	8g/L	.	8g/L 8b-	.	12dd\L	.	.	4g/	4c\	.	4b-/	4g\	.
.	.	.	.	.	.	.	.	12cc\	.	.	.	.	.	.	.	.
.	.	.	.	8c/	.	8c/	.	.	.	.	.	.	.	.	.	.
.	.	.	.	.	.	.	.	12b-\J)	.	.	.	.	.	.	.	.
!	!	!	!	!	!	!	!	!LO:TUP:b	!	!	!	!	!	!	!	!
4C/	.	4c\ 4g	.	8g/	.	8g/ 8b-	.	12b-/L	-tko	.	4g/	4c\	.	4b-/	4g\	.
.	.	.	.	.	.	.	.	12a/	.	.	.	.	.	.	.	.
.	.	.	.	8c/J	.	8c/J	.	.	.	.	.	.	.	.	.	.
.	.	.	.	.	.	.	.	12g/J	.	.	.	.	.	.	.	.
*Xrep	*	*Xrep	*	*	*	*	*	*	*	*	*Xrep	*Xrep	*	*	*	*
*	*	*	*	*	*	*	*	*	*	*	*v	*v	*	*	*	*
=54	=54	=54	=54	=54	=54	=54	=54	=54	=54	=54	=54	=54	=54	=54	=54
4F\	.	4f\ 4a	.	8e/L	.	8g#X/L	.	(4.g#X/	Bo-	.	4r	.	4b-/	4g\	.
.	.	.	.	8c/	.	8c/	.	.	.	.	.	.	.	.	.
*	*	*	*	*	*	*	*	*	*	*	*^	*	*	*	*
4r	.	4f\ 4a	.	8f/	.	8a/	.	.	.	.	4f/ 4A	4A\	.	4a/	4f\	.
.	.	.	.	8c/J	.	8c/J	.	8a/)	.	.	.	.	.	.	.	.
4F\	.	4f\ 4a	.	8f/L	.	8a/L	.	4a/	-ża	.	4f/ 4A	4A\	.	4a/	4f\	.
.	.	.	.	8c/	.	8c/	.	.	.	.	.	.	.	.	.	.
4r	.	4f\ 4a	.	8f/	.	8a/	.	4r	.	.	4r	4ryy	.	4r	4ryy	.
.	.	.	.	8c/J	.	8c/J	.	.	.	.	.	.	.	.	.	.
*	*	*	*	*Xtremolo	*	*Xtremolo	*	*	*	*	*	*	*	*	*	*
*	*	*	*	*	*	*	*	*	*	*	*v	*v	*	*	*	*
*	*	*	*	*	*	*	*	*	*	*	*	*	*v	*v	*
=55	=55	=55	=55	=55	=55	=55	=55	=55	=55	=55	=55	=55	=55	=55
!	!	!	!	!	!	!LO:LB:g=original	!	!	!	!	!	!	!	!
!	!	!	!	!	!	!	!	!	!	!LO:DY:a	!LO:TX:a:t=3.	!	!LO:TX:a:t=2.	!
2E\	.	4g\	.	8r	.	8r	.	2cc\	módl	<	0r	.	0r	.
.	.	.	.	8c/L	.	8c/L	.	.	.	.	.	.	.	.
.	.	4f\	.	8e/	.	8g/	.	.	.	.	.	.	.	.
.	.	.	.	8c/J	.	8c/J	.	.	.	.	.	.	.	.
4D\	.	4d\	.	8f/L	.	8g/L	.	4dd\	się	.	.	.	.	.
.	.	.	.	8d/	.	8Bn/	.	.	.	.	.	.	.	.
4C\	.	4g\	.	8e/	.	8g/	.	4ee\	za	[[	.	.	.	.
.	.	.	.	8c/J	.	8c/J	.	.	.	.	.	.	.	.
=56	=56	=56	=56	=56	=56	=56	=56	=56	=56	=56	=56	=56	=56	=56
2F\	.	2A\ 2f	.	2f/	.	2A/	.	(4gg\	na-	.	.	.	.	.
.	.	.	.	.	.	.	.	4ff\)	.	.	.	.	.	.
2r	.	2r	.	2r	.	2r	.	4ee`\	-mi	.	.	.	.	.
.	.	.	.	.	.	.	.	4dd`\	grze-	.	.	.	.	.
=57	=57	=57	=57	=57	=57	=57	=57	=57	=57	=57	=57	=57	=57	=57
!LO:LB:g=original	!	!LO:LB:g=original	!	!LO:LB:g=original	!	!	!	!	!	!	!	!	!	!
*	*	*	*	*	*	*	*	*	*	*	*	*	*^	*
2G\	.	2.c\	.	2.c/	.	2.G/ 2.e	.	(2ccs\	-szne-	.	1r	.	2.cc/	2.e\	.
2GG/	.	.	.	.	.	.	.	4ee\	.	.	.	.	.	.	.
.	.	4Bn\	.	4Bn/ 4d	.	4G/ 4f	.	4dd\	.	.	.	.	4dd/	4g\	.
=58	=58	=58	=58	=58	=58	=58	=58	=58	=58	=58	=58	=58	=58	=58	=58
*	*	*	*	*	*	*	*	*	*	*	*^	*	*	*	*
4C/	.	4c\	.	8c/ 8e	.	8G/ 8e	.	2cc\)	-mi	.	4g/ 4c	4c\	.	4cc/	4e\	.
.	.	.	.	8r	.	8r	.	.	.	.	.	.	.	.	.	.
4r	.	4c\	.	4c'/	.	4a'/	.	.	.	.	4f/ 4A	4A\	.	4a/	4c\	.
2r	.	4c\	.	4c'/	.	4a'/	.	2r	.	.	4f/ 4A	4A\	.	4a/	4c\	.
.	.	4c\	.	4c'/	.	4a'/	.	.	.	.	4f/ 4A	4A\	.	4a/	4c\	.
=59:|!	=59:|!	=59:|!	=59:|!	=59:|!	=59:|!	=59:|!	=59:|!	=59:|!	=59:|!	=59:|!	=59:|!	=59:|!	=59:|!	=59:|!	=59:|!	=59:|!
!LO:SIC:s:o=:v:for zmiast f	!	!	!	!	!	!	!	!LO:TX:a:t=2.	!	!	!	!	!	!	!	!
*	*	*	*	*	*	*	*	*	*	*	*	*	*	*tuplet	*	*
8C/	f	4c\ 4e	f	4g'/ 4b-	f	12b-\L	f	1r	.	.	4g/	4c\	.	12b-/L	4g\	f
.	.	.	.	.	.	12dd\	.	.	.	.	.	.	.	12dd/	.	.
8r	.	.	.	.	.	.	.	.	.	.	.	.	.	.	.	.
.	.	.	.	.	.	12cc\J	.	.	.	.	.	.	.	12cc/J	.	.
*	*	*	*	*	*	*rep	*	*	*	*	*	*	*	*rep	*	*
8C/	.	4c\ 4e	.	4g'/ 4b-	.	12b-\L	.	.	.	.	4g/	4c\	.	12b-/L	4g\	.
.	.	.	.	.	.	12dd\	.	.	.	.	.	.	.	12dd/	.	.
8r	.	.	.	.	.	.	.	.	.	.	.	.	.	.	.	.
.	.	.	.	.	.	12cc\J	.	.	.	.	.	.	.	12cc/J	.	.
*	*	*	*	*	*	*	*	*	*	*	*	*	*	*Xrep	*	*
*	*	*	*	*	*	*	*	*	*	*	*	*	*	*rep	*	*
8C/	.	4c\ 4e	.	4g'/ 4b-	.	12b-\L	.	.	.	.	4g/	4c\	.	12b-/L	4g\	.
.	.	.	.	.	.	12dd\	.	.	.	.	.	.	.	12dd/	.	.
8r	.	.	.	.	.	.	.	.	.	.	.	.	.	.	.	.
.	.	.	.	.	.	12cc\J	.	.	.	.	.	.	.	12cc/J	.	.
*	*	*	*	*	*	*	*	*	*	*	*	*	*	*Xrep	*	*
*	*	*	*	*	*	*	*	*	*	*	*	*	*	*rep	*	*
8C/	.	4c\ 4e	.	4g'/ 4b-	.	12b-\L	.	.	.	.	4g/	4c\	.	12b-/L	4g\	.
.	.	.	.	.	.	12dd\	.	.	.	.	.	.	.	12dd/	.	.
8r	.	.	.	.	.	.	.	.	.	.	.	.	.	.	.	.
.	.	.	.	.	.	12cc\J	.	.	.	.	.	.	.	12cc/J	.	.
*	*	*	*	*	*	*Xrep	*	*	*	*	*	*	*	*Xrep	*	*
=60	=60	=60	=60	=60	=60	=60	=60	=60	=60	=60	=60	=60	=60	=60	=60	=60
!	!	!	!	!	!	!	!	!	!	!	!	!	!	!	!LO:LB:g=original	!
8F\	.	4A\ 4f	.	4f'/ 4a	.	12a\L	.	1r	.	.	4a/	4f\	.	12a/L	4f\	.
.	.	.	.	.	.	12dd\	.	.	.	.	.	.	.	12dd/	.	.
8r	.	.	.	.	.	.	.	.	.	.	.	.	.	.	.	.
.	.	.	.	.	.	12cc\J	.	.	.	.	.	.	.	12cc/J	.	.
*	*	*	*	*	*	*rep	*	*	*	*	*	*	*	*rep	*	*
8F\	.	4A\ 4f	.	4f'/ 4a	.	12a\L	.	.	.	.	4a/	4f\	.	12a/L	4f\	.
.	.	.	.	.	.	12dd\	.	.	.	.	.	.	.	12dd/	.	.
8r	.	.	.	.	.	.	.	.	.	.	.	.	.	.	.	.
.	.	.	.	.	.	12cc\J	.	.	.	.	.	.	.	12cc/J	.	.
*	*	*	*	*	*	*	*	*	*	*	*	*	*	*Xrep	*	*
*	*	*	*	*	*	*	*	*	*	*	*	*	*	*rep	*	*
8F\	.	4A\ 4f	.	4f'/ 4a	.	12a\L	.	.	.	.	4a/	4f\	.	12a/L	4f\	.
.	.	.	.	.	.	12dd\	.	.	.	.	.	.	.	12dd/	.	.
8r	.	.	.	.	.	.	.	.	.	.	.	.	.	.	.	.
.	.	.	.	.	.	12cc\J	.	.	.	.	.	.	.	12cc/J	.	.
*	*	*	*	*	*	*	*	*	*	*	*	*	*	*Xrep	*	*
*	*	*	*	*	*	*	*	*	*	*	*	*	*	*rep	*	*
8F\	.	4A\ 4f	.	4f'/ 4a	.	12a\L	.	.	.	.	4a/	4f\	.	12a/L	4f\	.
.	.	.	.	.	.	12dd\	.	.	.	.	.	.	.	12dd/	.	.
8r	.	.	.	.	.	.	.	.	.	.	.	.	.	.	.	.
.	.	.	.	.	.	12cc\J	.	.	.	.	.	.	.	12cc/J	.	.
*	*	*	*	*	*	*	*	*	*	*	*	*	*	*Xrep	*	*
*	*	*	*	*	*	*Xrep	*	*	*	*	*	*	*	*	*	*
=61	=61	=61	=61	=61	=61	=61	=61	=61	=61	=61	=61	=61	=61	=61	=61	=61
!	!	!	!	!	!	!LO:LB:g=original	!	!	!	!	!	!	!	!	!	!
8C/	.	4c\ 4e	.	4g'/ 4b-	.	12b-\L	.	4dd\	te-	.	4g/	4c\	.	12b-/L	4g\	.
.	.	.	.	.	.	12dd\	.	.	.	.	.	.	.	12dd/	.	.
8r	.	.	.	.	.	.	.	.	.	.	.	.	.	.	.	.
.	.	.	.	.	.	12cc\J	.	.	.	.	.	.	.	12cc/J	.	.
*	*	*	*	*	*	*rep	*	*	*	*	*	*	*	*rep	*	*
8C/	.	4c\ 4e	.	4g'/ 4b-	.	12b-\L	.	4cc\	-taz	.	4g/	4c\	.	12b-/L	4g\	.
.	.	.	.	.	.	12dd\	.	.	.	.	.	.	.	12dd/	.	.
8r	.	.	.	.	.	.	.	.	.	.	.	.	.	.	.	.
.	.	.	.	.	.	12cc\J	.	.	.	.	.	.	.	12cc/J	.	.
*	*	*	*	*	*	*	*	*	*	*	*	*	*	*Xrep	*	*
*	*	*	*	*	*	*	*	*	*	*	*	*	*	*rep	*	*
8C/	.	4c\ 4e	.	4g'/ 4b-	.	12b-\L	.	4r	.	.	4g/	4c\	.	12b-/L	4g\	.
.	.	.	.	.	.	12dd\	.	.	.	.	.	.	.	12dd/	.	.
8r	.	.	.	.	.	.	.	.	.	.	.	.	.	.	.	.
.	.	.	.	.	.	12cc\J	.	.	.	.	.	.	.	12cc/J	.	.
*	*	*	*	*	*	*	*	*	*	*	*	*	*	*Xrep	*	*
*	*	*	*	*	*	*	*	*	*	*	*	*	*	*rep	*	*
8C/	.	4c\ 4e	.	4g'/ 4b-	.	12b-\L	.	8.cc\	i	.	4g/	4c\	.	12b-/L	4g\	.
.	.	.	.	.	.	12dd\	.	.	.	.	.	.	.	12dd/	.	.
8r	.	.	.	.	.	.	.	.	.	.	.	.	.	.	.	.
.	.	.	.	.	.	12cc\J	.	.	.	.	.	.	.	12cc/J	.	.
.	.	.	.	.	.	.	.	16cc\	w-go	.	.	.	.	.	.	.
*	*	*	*	*	*	*Xrep	*	*	*	*	*	*	*	*Xrep	*	*
=62	=62	=62	=62	=62	=62	=62	=62	=62	=62	=62	=62	=62	=62	=62	=62	=62
8F\	.	4A\ 4f	.	4f'/ 4a	.	12a\L	.	4gg\	-dzi-	.	4a/	4f\	.	12a/L	4f\	.
.	.	.	.	.	.	12dd\	.	.	.	.	.	.	.	12dd/	.	.
8r	.	.	.	.	.	.	.	.	.	.	.	.	.	.	.	.
.	.	.	.	.	.	12cc\J	.	.	.	.	.	.	.	12cc/J	.	.
*	*	*	*	*	*	*rep	*	*	*	*	*	*	*	*rep	*	*
8F\	.	4A\ 4f	.	4f'/ 4a	.	12a\L	.	4ff\	-ne	.	4a/	4f\	.	12a/L	4f\	.
.	.	.	.	.	.	12dd\	.	.	.	.	.	.	.	12dd/	.	.
8r	.	.	.	.	.	.	.	.	.	.	.	.	.	.	.	.
.	.	.	.	.	.	12cc\J	.	.	.	.	.	.	.	12cc/J	.	.
*	*	*	*	*	*	*	*	*	*	*	*	*	*	*Xrep	*	*
*	*	*	*	*	*	*	*	*	*	*	*	*	*	*rep	*	*
8F\	.	4A\ 4f	.	4f'/ 4a	.	12a\L	.	4r	.	.	4a/	4f\	.	12a/L	4f\	.
.	.	.	.	.	.	12dd\	.	.	.	.	.	.	.	12dd/	.	.
8r	.	.	.	.	.	.	.	.	.	.	.	.	.	.	.	.
.	.	.	.	.	.	12cc\J	.	.	.	.	.	.	.	12cc/J	.	.
*	*	*	*	*	*	*	*	*	*	*	*	*	*	*Xrep	*	*
*	*	*	*	*	*	*	*	*	*	*	*	*	*	*rep	*	*
8F\	.	4A\ 4f	.	4f'/ 4a	.	12a\L	.	4r	.	.	4a/	4f\	.	12a/L	4f\	.
.	.	.	.	.	.	12dd\	.	.	.	.	.	.	.	12dd/	.	.
8r	.	.	.	.	.	.	.	.	.	.	.	.	.	.	.	.
.	.	.	.	.	.	12cc\J	.	.	.	.	.	.	.	12cc/J	.	.
*	*	*	*	*	*	*Xrep	*	*	*	*	*	*	*	*Xrep	*	*
=63	=63	=63	=63	=63	=63	=63	=63	=63	=63	=63	=63	=63	=63	=63	=63	=63
!	!	!LO:LB:g=original	!	!LO:LB:g=original	!	!	!	!	!	!	!	!	!	!	!	!
4r	.	4c\ 4e	.	4g'/ 4b-	.	12b-\L	.	2.gg\	Śmier-	.	4g/	4c\	.	12b-/L	4g\	.
.	.	.	.	.	.	12dd\	.	.	.	.	.	.	.	12dd/	.	.
.	.	.	.	.	.	12cc\J	.	.	.	.	.	.	.	12cc/J	.	.
*	*	*	*	*	*	*rep	*	*	*	*	*	*	*	*rep	*	*
4F;\	.	4c\ 4e	.	4g'/ 4b-	.	12b-\L	.	.	.	.	4g/	4c\	.	12b-/L	4g\	.
.	.	.	.	.	.	12dd\	.	.	.	.	.	.	.	12dd/	.	.
.	.	.	.	.	.	12cc\J	.	.	.	.	.	.	.	12cc/J	.	.
*	*	*	*	*	*	*	*	*	*	*	*	*	*	*Xrep	*	*
*	*	*	*	*	*	*	*	*	*	*	*	*	*	*rep	*	*
2r	.	4c\ 4e	.	4g'/ 4b-	.	12b-\L	.	.	.	.	4g/	4c\	.	12b-/L	4g\	.
.	.	.	.	.	.	12dd\	.	.	.	.	.	.	.	12dd/	.	.
.	.	.	.	.	.	12cc\J	.	.	.	.	.	.	.	12cc/J	.	.
*	*	*	*	*	*	*	*	*	*	*	*	*	*	*Xrep	*	*
*	*	*	*	*	*	*	*	*	*	*	*	*	*	*rep	*	*
.	.	4c\ 4e	.	4g'/ 4b-	.	12b-\L	.	4b-\	-ci	.	4g/	4c\	.	12b-/L	4g\	.
.	.	.	.	.	.	12dd\	.	.	.	.	.	.	.	12dd/	.	.
.	.	.	.	.	.	12cc\J	.	.	.	.	.	.	.	12cc/J	.	.
*	*	*	*	*	*	*Xrep	*	*	*	*	*	*	*	*Xrep	*	*
*	*	*	*	*	*	*	*	*	*	*	*v	*v	*	*	*	*
*	*	*	*	*	*	*	*	*	*	*	*	*	*v	*v	*
=64	=64	=64	=64	=64	=64	=64	=64	=64	=64	=64	=64	=64	=64	=64
!	!	!	!	!	!	!	!	!	!	!	!	!	!LO:LB:g=original	!
8C/L	p	4r	.	4r	.	4r	.	4a/	na-	.	4r	.	4r	.
8r	.	.	.	.	.	.	.	.	.	.	.	.	.	.
*	*	*	*	*	*	*	*	*	*	*	*^	*	*^	*
*	*	*	*	*2\right	*	*	*	*	*	*	*	*	*	*	*	*
8C/	.	2A;\ 2f	.	2f;\ 2cc	.	4a;\ 4ff	.	4a/	-szey	.	2a;/	2f\	.	2ff;/	2a\	.
8r	.	.	.	.	.	.	.	.	.	.	.	.	.	.	.	.
8C/	.	.	.	.	.	2r	.	4r	.	.	.	.	.	.	.	.
8r	.	.	.	.	.	.	.	.	.	.	.	.	.	.	.	.
8C/J	.	4r	.	4r	.	.	.	4r	.	.	4r	4ryy	.	4r	4ryy	.
8r	.	.	.	.	.	.	.	.	.	.	.	.	.	.	.	.
=65	=65	=65	=65	=65	=65	=65	=65	=65	=65	=65	=65	=65	=65	=65	=65	=65
!	!	!	!	!	!	!	!	!LO:LB:g=original	!	!	!	!LO:LB:g=original	!	!	!	!
!	!	!	!	!LO:SIC:s:o=:v:piano zamiast p	!	!	!	!	!	!	!	!	!LO:DY:a	!	!	!
8F\L	.	8C/L 8c	p	8c/L 8e	p	8g/ 8b-	p	4dd\	te-	.	8c/	8C\	p	4dd-X/	4b-\	.
8r	.	8r	.	8r	.	8r	.	.	.	.	8r	8ryy	.	.	.	.
8F\	.	8C/ 8c	.	8c/ 8e	.	8g/ 8b-	.	4cc\	-raz	.	8c/	8C\	.	4cc/	4g\	.
8r	.	8r	.	8r	.	8r	.	.	.	.	8r	8ryy	.	.	.	.
8F\	.	8C/ 8c	.	8c/ 8e	.	8g/ 8b-	.	4r	.	.	8c/	8C\	.	4r	4ryy	.
8r	.	8r	.	8r	.	8r	.	.	.	.	8r	8ryy	.	.	.	.
8F\J	.	8C/J 8c	.	8c/J 8e	.	8g/ 8b-	.	8.cc\	i	.	8c/	8C\	.	4cc/	4a\	.
8r	.	8r	.	8r	.	8r	.	.	.	.	8r	8ryy	.	.	.	.
.	.	.	.	.	.	.	.	16cc\	w-go	.	.	.	.	.	.	.
=66	=66	=66	=66	=66	=66	=66	=66	=66	=66	=66	=66	=66	=66	=66	=66	=66
*	*	*rep	*	*	*	*	*	*	*	*	*	*	*	*	*	*
4C/	.	8C/L 8c	.	8A/L 8f	.	8f/L 8a	.	4aa\	-dzi-	.	8f/	8F\	.	4aa/	4cc\	.
.	.	8r	.	8r	.	8r	.	.	.	.	8r	8ryy	.	.	.	.
4r	.	8C/ 8c	.	8A/ 8f	.	8f/ 8a	.	4ff\	-ne	.	8f/	8F\	.	4ff/	4a\	.
.	.	8r	.	8r	.	8r	.	.	.	.	8r	8ryy	.	.	.	.
2r	.	8C/ 8c	.	8A/ 8f	.	8f/ 8a	.	2r	.	.	8f/	8F\	.	2r	2ryy	.
.	.	8r	.	8r	.	8r	.	.	.	.	8r	8ryy	.	.	.	.
.	.	8C/J 8c	.	8A/J 8f	.	8f/J 8a	.	.	.	.	8f/	8F\	.	.	.	.
.	.	8r	.	8r	.	8r	.	.	.	.	8r	8ryy	.	.	.	.
*	*	*Xrep	*	*	*	*	*	*	*	*	*	*	*	*	*	*
*	*	*	*	*	*	*	*	*	*	*	*	*	*	*v	*v	*
=67	=67	=67	=67	=67	=67	=67	=67	=67	=67	=67	=67	=67	=67	=67	=67
!	!	!	!	!	!	!LO:LB:g=original	!	!	!	!	!	!	!	!	!
!	!	!	!	!	!	!LO:TX:b:t=g	!	!	!	!	!	!	!	!LO:TX:a:t=2.	!
4F\	.	4C/ 4c	.	4c/ 4e	.	4g/ 4b-	.	8.bb-\	śmier-	.	4c/	4C/	.	0r	.
.	.	.	.	.	.	.	.	16aa\	-ci	.	.	.	.	.	.
4r	.	4r	.	4r	.	4r	.	8.gg\	na-	.	4r	4ryy	.	.	.
.	.	.	.	.	.	.	.	16ff\	-szey	.	.	.	.	.	.
2r	.	2r	.	2r	.	2r	.	8.ee\	śmier-	.	2r	2ryy	.	.	.
.	.	.	.	.	.	.	.	16dd\	-ći	.	.	.	.	.	.
.	.	.	.	.	.	.	.	8.cc\	na-	.	.	.	.	.	.
.	.	.	.	.	.	.	.	16b-\	-szey	.	.	.	.	.	.
=68	=68	=68	=68	=68	=68	=68	=68	=68	=68	=68	=68	=68	=68	=68	=68
8F'\	.	4C/ 4c	.	4A/ 4f	.	4f/ 4a	.	(4.a\	a-	.	4f/ 4F	4F\	.	.	.
8r	.	.	.	.	.	.	.	.	.	.	.	.	.	.	.
8F'\	.	4r	.	4r	.	4r	.	.	.	.	4r	4ryy	.	.	.
8r	.	.	.	.	.	.	.	8b-\)	.	.	.	.	.	.	.
8F'\	.	2r	.	2r	.	2r	.	4cc\	-men	.	2r	2ryy	.	.	.
8r	.	.	.	.	.	.	.	.	.	.	.	.	.	.	.
8D'\	.	.	.	.	.	.	.	4r	.	.	.	.	.	.	.
8r	.	.	.	.	.	.	.	.	.	.	.	.	.	.	.
*	*	*	*	*	*	*	*	*	*	*	*v	*v	*	*	*
=69	=69	=69	=69	=69	=69	=69	=69	=69	=69	=69	=69	=69	=69	=69
!	!	!LO:LB:g=original	!	!LO:LB:g=original	!	!	!	!	!	!	!	!	!	!
*	*	*	*	*	*	*	*	*	*	*	*	*	*^	*
!	!	!	!	!	!	!	!	!LO:TX:a:t=2.	!	!	!LO:TX:a:t=2.	!	!	!	!
8G'\	.	8F`/L	.	8c'/L	.	8A'/L 8f	.	0r	.	.	0r	.	8ff`/L	8a`\L	.
8r	.	8r	.	8r	.	8r	.	.	.	.	.	.	8r	8ryy	.
8G'\	.	8F`/	.	8c'/	.	8A'/ 8f	.	.	.	.	.	.	8ff`/	8a`\	.
8r	.	8r	.	8r	.	8r	.	.	.	.	.	.	8r	8ryy	.
8G'\	.	8F`/	.	8c'/	.	8A'/ 8f	.	.	.	.	.	.	8ff`/	8a`\	.
8r	.	8r	.	8r	.	8r	.	.	.	.	.	.	8r	8ryy	.
8G'\	.	8c`/J	.	8d'/J	.	8A'/J 8f#X	.	.	.	.	.	.	8ff#X`/J	8a`\J	.
8r	.	8r	.	8r	.	8r	.	.	.	.	.	.	8r	8ryy	.
=70	=70	=70	=70	=70	=70	=70	=70	=70	=70	=70	=70	=70	=70	=70	=70
8C'\	.	8G`/	.	8d'/L	.	8B-'/L 8g	.	.	.	.	.	.	8gg`/L	8b-`\L	.
8r	.	8r	.	8r	.	8r	.	.	.	.	.	.	8r	8ryy	.
8C'\	.	8G`/	.	8d'/	.	8B-'/ 8g	.	.	.	.	.	.	8gg`/	8b-`\	.
8r	.	8r	.	8r	.	8r	.	.	.	.	.	.	8r	8ryy	.
8C'\	.	8G`/	.	8d'/	.	8B-'/ 8g	.	.	.	.	.	.	8gg`/	8b-`\	.
8r	.	8r	.	8r	.	8r	.	.	.	.	.	.	8r	8ryy	.
8C'\	.	8G`\ 8g	.	8g'/J 8b-	.	8d'/J 8b-	.	.	.	.	.	.	8dd`/J	8b-`\J	.
8r	.	8r	.	8r	.	8r	.	.	.	.	.	.	8r	8ryy	.
=71	=71	=71	=71	=71	=71	=71	=71	=71	=71	=71	=71	=71	=71	=71	=71
!	!	!	!	!	!	!	!	!LO:LB:g=original	!	!	!	!	!	!LO:LB:g=original	!
*	*	*	*	*	*	*	*	*	*	*	*^	*	*	*	*
8F'\L	.	8A\ 8f	.	8A/L 8f	.	8f'/L 8a	.	8.cc\	smier-	.	8a/	8f\	.	8cc`/L	8a`\L	.
8r	.	8r	.	8r	.	8r	.	.	.	.	8r	8ryy	.	8r	8ryy	.
.	.	.	.	.	.	.	.	16bn\	-ci	.	.	.	.	.	.	.
8F'\	.	8A\ 8f	.	8A/ 8f	.	8f'/ 8a	.	8.cc\	na-	.	8a/	8f\	.	8cc`/	8a`\	.
8r	.	8r	.	8r	.	8r	.	.	.	.	8r	8ryy	.	8r	8ryy	.
.	.	.	.	.	.	.	.	16dd\	-szey	.	.	.	.	.	.	.
8F'\	.	8c\ 8e	.	8c/ 8e	.	8c'/ 8g	.	8.cc\	smier-	.	8g/	8c\	.	8b-`/	8g`\	.
8r	.	8r	.	8r	.	8r	.	.	.	.	8r	8ryy	.	8r	8ryy	.
.	.	.	.	.	.	.	.	16b-X\	-ci	.	.	.	.	.	.	.
8F'\J	.	8C/ 8c	.	8c/J 8e	.	8c'/J 8g	.	8.a/	na-	.	8g/	8c\	.	8g`/J	8e`\J	.
8r	.	8r	.	8r	.	8r	.	.	.	.	8r	8ryy	.	8r	8ryy	.
.	.	.	.	.	.	.	.	16g/	-szey	.	.	.	.	.	.	.
=72	=72	=72	=72	=72	=72	=72	=72	=72	=72	=72	=72	=72	=72	=72	=72	=72
!	!	!	!	!	!	!	!	!	!	!	!	!LO:LB:g=original	!	!	!	!
8AA'\L 8A	.	8F/L	.	8c'/L	.	8A'/L 8f	.	2f/	a-	.	8f/	8A\	.	(2ff/	2a\	.
8r	.	8r	.	8r	.	8r	.	.	.	.	8r	8ryy	.	.	.	.
8AA'\ 8A	.	8F/	.	8c'/	.	8A'/ 8f	.	.	.	.	8A/	8F\	.	.	.	.
8r	.	8r	.	8r	.	8r	.	.	.	.	8r	8ryy	.	.	.	.
8AA'\ 8A	.	8F/	.	8c'/	.	8A'/ 8f	.	4f/	-men	.	8A/	8F\	.	4ff/)	4a\	.
8r	.	8r	.	8r	.	8r	.	.	.	.	8r	8ryy	.	.	.	.
8AA'\J 8A	.	8F/J	.	8c'/J	.	8A'/J 8f	.	4r	.	.	8A/	8F\	.	4r	4ryy	.
8r	.	8r	.	8r	.	8r	.	.	.	.	8r	8ryy	.	.	.	.
*	*	*	*	*	*	*	*	*	*	*	*v	*v	*	*	*	*
=73	=73	=73	=73	=73	=73	=73	=73	=73	=73	=73	=73	=73	=73	=73	=73
!	!	!	!	!	!	!LO:LB:g=original	!	!	!	!	!	!	!	!	!
!	!	!	!	!	!	!	!	!	!	!	!LO:TX:a:t=2.	!	!	!	!
4GG\ 4G	.	8F#X/L	.	8c'/L 8e-X	.	8A'/L 8f#X	.	2f#X/	a-	.	0r	.	2ff#X/	2a\	.
.	.	8r	.	8r	.	8r	.	.	.	.	.	.	.	.	.
4r	.	8F#/	.	8c'/ 8e-	.	8A'/ 8f#	.	.	.	.	.	.	.	.	.
.	.	8r	.	8r	.	8r	.	.	.	.	.	.	.	.	.
2r	.	8F#/	.	8c'/ 8e-	.	8A'/ 8f#	.	4f#/	-men	.	.	.	4ff#/	4a\	.
.	.	8r	.	8r	.	8r	.	.	.	.	.	.	.	.	.
.	.	8F#/J	.	8c'/J 8e-	.	8A'/J 8f#	.	4r	.	.	.	.	4r	4ryy	.
.	.	8r	.	8r	.	8r	.	.	.	.	.	.	.	.	.
=74	=74	=74	=74	=74	=74	=74	=74	=74	=74	=74	=74	=74	=74	=74	=74
!	!	!LO:LB:g=original	!	!LO:LB:g=original	!	!	!	!	!	!	!	!	!	!	!
8F'\L	.	4F\ 4f	.	4B-/ 4d	.	4B-/ 4g	.	(8g\L	a-	.	.	.	4gg\	4b-\	.
8r	.	.	.	.	.	.	.	16a\L	.	.	.	.	.	.	.
.	.	.	.	.	.	.	.	16b-\JJ	.	.	.	.	.	.	.
!	!	!	!	!	!	!	!	!	!	!LO:HP:b	!	!	!	!	!
8F'\	.	4r	.	4r	.	4r	.	16cc#X\LL	.	<	.	.	4r	4ryy	.
.	.	.	.	.	.	.	.	16dd\	.	.	.	.	.	.	.
8r	.	.	.	.	.	.	.	16ee\	.	.	.	.	.	.	.
.	.	.	.	.	.	.	.	16ff#X\JJ	.	.	.	.	.	.	.
8C'\	.	2r	.	2r	.	2r	.	16gg\LL	.	.	.	.	2r	2ryy	.
.	.	.	.	.	.	.	.	16aa\	.	.	.	.	.	.	.
8r	.	.	.	.	.	.	.	16bb-\	.	.	.	.	.	.	.
.	.	.	.	.	.	.	.	16aa\JJ	.	.	.	.	.	.	.
8C'\J	.	.	.	.	.	.	.	16ccc\LL	.	.	.	.	.	.	.
.	.	.	.	.	.	.	.	16bb-\	.	.	.	.	.	.	.
8r	.	.	.	.	.	.	.	16aa\	.	.	.	.	.	.	.
.	.	.	.	.	.	.	.	16gg\JJ	.	[[	.	.	.	.	.
=75	=75	=75	=75	=75	=75	=75	=75	=75	=75	=75	=75	=75	=75	=75	=75
!	!	!	!	!	!	!	!	!LO:LB:g=original	!	!	!	!	!	!	!
*	*	*	*	*	*	*	*	*	*	*	*^	*	*	*	*
8F'\L	.	4F/	.	4A'/ 4f	.	8f'/L 8a	.	2ff\	.	.	8a\	8f\	.	2ff/	2a\	.
8r	.	.	.	.	.	8r	.	.	.	.	8r	8ryy	.	.	.	.
8F'\	.	4F/	.	4A'/ 4f	.	8f'/ 8a	.	.	.	.	8a\	8f\	.	.	.	.
8r	.	.	.	.	.	8r	.	.	.	.	8r	8ryy	.	.	.	.
8C'\	.	4C/	.	4G'/ 4e	.	8c'/ 8g	.	16ff'\LL	.	.	8g\	8c\	.	8ff/L	8a\L	.
.	.	.	.	.	.	.	.	16ee'\	.	.	.	.	.	.	.	.
8r	.	.	.	.	.	8r	.	16dd'\	.	.	8r	8ryy	.	16ee/L	16cc\L	.
.	.	.	.	.	.	.	.	16cc'\JJ	.	.	.	.	.	16dd/JJ	16b-\JJ	.
8C'\J	.	4C/	.	4G'/ 4e	.	8c'/J 8g	.	16b-'/LL	.	.	8g\	8c\	.	16cc/LL	16a\LL	.
.	.	.	.	.	.	.	.	16a'/	.	.	.	.	.	16b-/	16g\	.
8r	.	.	.	.	.	8r	.	16g'/	.	.	8r	8ryy	.	16a/	16f\	.
.	.	.	.	.	.	.	.	16f'/JJ)	.	.	.	.	.	16g/JJ	16e\JJ	.
=76	=76	=76	=76	=76	=76	=76	=76	=76	=76	=76	=76	=76	=76	=76	=76	=76
4F\	.	4F/	.	4c/ 4f	.	4A/ 4f	.	4f/	-men	.	4f/ 4A	4A\	.	4f/	4f\	.
4F\	.	4F/	.	4c/ 4f	.	4A/ 4f	.	4r	.	.	4r	4ryy	.	8r	8ryy	.
.	.	.	.	.	.	.	.	.	.	.	.	.	.	8c/	8c/	.
4F\	.	4F/	.	4c/ 4f	.	4A/ 4f	.	8r	.	.	4r	4ryy	.	4.a/	4.f\	.
.	.	.	.	.	.	.	.	8c/	a-	.	.	.	.	.	.	.
4E\	.	4r	.	4r	.	4r	.	8.a/L	.	.	4g/ 4c	4c\	.	.	.	.
.	.	.	.	.	.	.	.	.	.	.	.	.	.	8g/	8d\	.
.	.	.	.	.	.	.	.	16g/Jk	.	.	.	.	.	.	.	.
=77	=77	=77	=77	=77	=77	=77	=77	=77	=77	=77	=77	=77	=77	=77	=77	=77
2C\	.	4r	.	4r	.	4r	.	2g/	.	.	2a/ 2c	2c\	.	2g/	2d\	.
.	.	4C/	.	(4c/ 4e	.	(4G/ 4e	.	.	.	.	.	.	.	.	.	.
4F\	.	4F/	.	4c/) 4f	.	4A/) 4f	.	4f/	-men	.	4f/ 4A	4A\	.	4f/	4f/	.
4r	.	4r	.	4r	.	4r	.	4r	.	.	4r	4r	.	4r	4ryy	.
*	*	*	*	*	*	*	*	*	*	*	*v	*v	*	*	*	*
*	*	*	*	*	*	*	*	*	*	*	*	*	*v	*v	*
==	==	==	==	==	==	==	==	==	==	==	==	==	==	==
*-	*-	*-	*-	*-	*-	*-	*-	*-	*-	*-	*-	*-	*-	*-
!!!system-decoration: s1,s2,s3,s4,s5,s6,s7
!!!RDF**kern: > = above
!!!RDF**kern: < = below
!!!RDF**dynam: f = for
!!!RDF**dynam: p =pia
!!!EED: Leszek Kubiak
!!!EEV: 2020-06-24
!!!ENC: Berenika Jozajtis
!!!END: 2020-04-18
!!!YEC: Copyright 2022 Narodowy Instytut Fryderyka Chopina (https://polishscores.org)
!!!YEM: Licence CC BY 4.0 (https://creativecommons.org/licenses/by/4.0)
